!!!!SEGMENT: pl-wn--mus-iii-128-924-cim_sowinski-wojciech--dieu-le-veut.krn
!!!cenid: 18xx:3585
!!!COM: Sowiński, Wojciech
!!!COM-rismid: pe30008543
!!!CDT:
!!!CNT:
!!!OTL: Dieu le veut
!!!PDT:
!!!AGN:
!!!SMS-siglum: PL-Wn
!!!SMS-shelfmark: Mus.III.128.924 Cim.
!!!SMS-shelfwork: W
!!!SMS-variant:
!!!SMS-altvar:
!!!NIFC-rismid:
!!!URL-scan: https://polona.pl/item/dieu-le-veut-cantate-pour-voix-de-tenor-ou-soprano-et-choeur-avec-accomp-de-piano,NjA4MTIwMTc/3/#info:metadata
!!!ONB-nifc:
!!!OMD: Allegro giusto.
!!!key: E-
**kern	**kern	**fing	**dynam	**kern	**text	**dynam	**kern	**text	**dynam	**kern	**text	**dynam	**kern	**text	**dynam
*part5	*part5	*part5	*part5	*part4	*part4	*part4	*part3	*part3	*part3	*part2	*part2	*part2	*part1	*part1	*part1
*staff6	*staff5	*staff5	*	*staff4	*staff4	*	*staff3	*staff3	*	*staff2	*staff2	*	*staff1	*staff1	*
*I"PIANO.	*I"PIANO.	*	*	*I"BASSE.	*	*	*I"TÉNOR.	*	*	*I"2ᵉ.DESSUS.	*	*	*I"1r.DESSUS.	*	*
*Ipiano	*Ipiano	*	*	*Ibass	*	*	*Itenor	*	*	*Ivox	*	*	*Ivox	*	*
*ICklav	*ICklav	*	*	*ICvox	*	*	*ICvox	*	*	*ICvox	*	*	*ICvox	*	*
*clefF4	*clefG2	*	*	*clefF4	*	*	*clefGv2	*	*	*clefG2	*	*	*clefG2	*	*
*k[b-e-a-]	*k[b-e-a-]	*	*	*k[b-e-a-]	*	*	*k[b-e-a-]	*	*	*k[b-e-a-]	*	*	*k[b-e-a-]	*	*
*E-:	*E-:	*	*	*E-:	*	*	*E-:	*	*	*E-:	*	*	*E-:	*	*
*M4/4	*M4/4	*	*	*M4/4	*	*	*M4/4	*	*	*M4/4	*	*	*M4/4	*	*
*met(c)	*met(c)	*	*	*met(c)	*	*	*met(c)	*	*	*met(c)	*	*	*met(c)	*	*
=1	=1	=1	=1	=1	=1	=1	=1	=1	=1	=1	=1	=1	=1	=1	=1
4EE-/ 4E-	8e-/L	.	f	1ryy	.	.	1ryy	.	.	1ryy	.	.	1ryy	.	.
.	8e-/J	.	.	.	.	.	.	.	.	.	.	.	.	.	.
4DD^/ 4D	4fT/	.	.	.	.	.	.	.	.	.	.	.	.	.	.
.	32qqe-/LLL	.	.	.	.	.	.	.	.	.	.	.	.	.	.
.	32qqf/JJJ	.	.	.	.	.	.	.	.	.	.	.	.	.	.
4EE-^/ 4E-	8g/L	.	.	.	.	.	.	.	.	.	.	.	.	.	.
.	8e-/J	.	.	.	.	.	.	.	.	.	.	.	.	.	.
4CC^/ 4C	4a-T/	.	.	.	.	.	.	.	.	.	.	.	.	.	.
.	32qqg/LLL	.	.	.	.	.	.	.	.	.	.	.	.	.	.
.	32qqa-/JJJ	.	.	.	.	.	.	.	.	.	.	.	.	.	.
=2	=2	=2	=2	=2	=2	=2	=2	=2	=2	=2	=2	=2	=2	=2	=2
!	!LO:TX:b:t=cres_ _cen_ _do.:ext=ud:problem=dynamics with extention lines	!	!LO:HP:t=cres_ _cen_ _do.:ext=ud	!	!	!	!	!	!	!	!	!	!	!	!
4BBB-^/ 4BB-	8d/L 8b-	.	<	1ryy	.	.	1ryy	.	.	1ryy	.	.	1ryy	.	.
.	8d/J 8b-	.	.	.	.	.	.	.	.	.	.	.	.	.	.
4AAAn^/ 4AAn	4e-/ 4f#X 4cc	.	.	.	.	.	.	.	.	.	.	.	.	.	.
8BBB-^/L 8BB-	4d/ 4fn 4dd	.	.	.	.	.	.	.	.	.	.	.	.	.	.
8AAA-X^/J 8AA-X	.	.	.	.	.	.	.	.	.	.	.	.	.	.	.
4GGG^/ 4GG	4e-/ 4ee-	.	.	.	.	.	.	.	.	.	.	.	.	.	.
=3	=3	=3	=3	=3	=3	=3	=3	=3	=3	=3	=3	=3	=3	=3	=3
2.AAA-/ 2.AA-	16r	.	.	1ryy	.	.	1ryy	.	.	1ryy	.	.	1ryy	.	.
.	(16c/LL	.	.	.	.	.	.	.	.	.	.	.	.	.	.
.	16f/	.	.	.	.	.	.	.	.	.	.	.	.	.	.
.	16e-/JJ	.	.	.	.	.	.	.	.	.	.	.	.	.	.
.	16cc\LL	5	.	.	.	.	.	.	.	.	.	.	.	.	.
.	16cc\	1	.	.	.	.	.	.	.	.	.	.	.	.	.
.	16ff\	3	.	.	.	.	.	.	.	.	.	.	.	.	.
.	16ee-\JJ)	2	.	.	.	.	.	.	.	.	.	.	.	.	.
.	4ccc\	5	.	.	.	.	.	.	.	.	.	.	.	.	.
4AAn\ 4An	4c/ 4e- 4f 4cc	.	[ sf	.	.	.	.	.	.	.	.	.	.	.	.
=4	=4	=4	=4	=4	=4	=4	=4	=4	=4	=4	=4	=4	=4	=4	=4
2.BB-\ 2.B-	16r	.	.	1ryy	.	.	1ryy	.	.	1ryy	.	.	1ryy	.	.
.	(16e-/LL	2	<	.	.	.	.	.	.	.	.	.	.	.	.
.	16g/	.	.	.	.	.	.	.	.	.	.	.	.	.	.
.	16e-/JJ	.	.	.	.	.	.	.	.	.	.	.	.	.	.
.	16b-\LL	5	.	.	.	.	.	.	.	.	.	.	.	.	.
.	16b-\	1	.	.	.	.	.	.	.	.	.	.	.	.	.
.	16gg\	.	.	.	.	.	.	.	.	.	.	.	.	.	.
.	16ee-\JJ	.	.	.	.	.	.	.	.	.	.	.	.	.	.
.	4bb-\)	.	[	.	.	.	.	.	.	.	.	.	.	.	.
4BB-\ 4B-	4g-X\ 4b- 4ee-	.	>]	.	.	.	.	.	.	.	.	.	.	.	.
!!LO:LB:g=original
=5	=5	=5	=5	=5	=5	=5	=5	=5	=5	=5	=5	=5	=5	=5	=5
*	*^	*	*	*	*	*	*	*	*	*	*	*	*	*	*
!	!	!	!	!	!	!	!	!	!	!	!	!	!	!LO:TX:b:t=TÉNOR ou SOPRANO.	!	!
4BBB-/ 4BB-	4ee-/	2f\ 2a-	.	<	1ryy	.	.	1ryy	.	.	1ryy	.	.	1r;>	.	.
4r	8dd/L	.	.	.	.	.	.	.	.	.	.	.	.	.	.	.
.	8cc#X/J	.	.	[	.	.	.	.	.	.	.	.	.	.	.	.
2BB-;<\ 2B-	2dd;>/	2f\ 2a-	.	>]	.	.	.	.	.	.	.	.	.	.	.	.
*	*v	*v	*	*	*	*	*	*	*	*	*	*	*	*	*	*
=6	=6	=6	=6	=6	=6	=6	=6	=6	=6	=6	=6	=6	=6	=6	=6
4BBB-/ 4BB-	8.f/L	.	p	1ryy	.	.	1ryy	.	.	1ryy	.	.	2r	.	.
.	16d/Jk	.	.	.	.	.	.	.	.	.	.	.	.	.	.
4BB-\ 4F 4A-	4B-/	.	.	.	.	.	.	.	.	.	.	.	.	.	.
!	!	!	!	!	!	!	!	!	!	!	!	!	!LO:TX:a:t=Récit.	!	!
2r	2r	.	.	.	.	.	.	.	.	.	.	.	4r	.	.
!	!	!	!	!	!	!	!	!	!	!	!	!	!	!	!LO:DY:a:rj
.	.	.	.	.	.	.	.	.	.	.	.	.	4b-\	Lou-	f
=7	=7	=7	=7	=7	=7	=7	=7	=7	=7	=7	=7	=7	=7	=7	=7
1r	1r	.	.	1ryy	.	.	1ryy	.	.	1ryy	.	.	2.ee-\	-ange	.
.	.	.	.	.	.	.	.	.	.	.	.	.	8g/	au	.
.	.	.	.	.	.	.	.	.	.	.	.	.	8g/	fer-	.
=8	=8	=8	=8	=8	=8	=8	=8	=8	=8	=8	=8	=8	=8	=8	=8
1r	1r	.	.	1ryy	.	.	1ryy	.	.	1ryy	.	.	2.g/	-vent	.
.	.	.	.	.	.	.	.	.	.	.	.	.	8f/	Pé-	.
.	.	.	.	.	.	.	.	.	.	.	.	.	8e-/	-le-	.
=9	=9	=9	=9	=9	=9	=9	=9	=9	=9	=9	=9	=9	=9	=9	=9
1r	2r	.	.	1ryy	.	.	1ryy	.	.	1ryy	.	.	2b-^>\	-rin	.
.	4r	.	.	.	.	.	.	.	.	.	.	.	2r	.	.
.	8.g/L	.	>	.	.	.	.	.	.	.	.	.	.	.	.
.	16g/Jk	.	]	.	.	.	.	.	.	.	.	.	.	.	.
!!LO:LB:g=original
=10	=10	=10	=10	=10	=10	=10	=10	=10	=10	=10	=10	=10	=10	=10	=10
*	*^	*	*	*	*	*	*	*	*	*	*	*	*	*	*
2AA-\ 2A-	2e-/ 2cc	2c\	.	f	1ryy	.	.	1ryy	.	.	1ryy	.	.	1r	.	.
4GG/ 4G	4e-/ 4b-	4B-\	.	.	.	.	.	.	.	.	.	.	.	.	.	.
8.FF/L 8.F	8.a-/L	4B-\ 4d	.	.	.	.	.	.	.	.	.	.	.	.	.	.
16EE-/Jk 16E-	16g/Jk	.	.	.	.	.	.	.	.	.	.	.	.	.	.	.
*	*v	*v	*	*	*	*	*	*	*	*	*	*	*	*	*	*
=11	=11	=11	=11	=11	=11	=11	=11	=11	=11	=11	=11	=11	=11	=11	=11
8.EE-/L 8.E-	2e-/ 2g	.	fp	1ryy	.	.	1ryy	.	.	1ryy	.	.	2r	.	.
(<16BB-/Jk	.	.	.	.	.	.	.	.	.	.	.	.	.	.	.
16AAn/LL	.	.	.	.	.	.	.	.	.	.	.	.	.	.	.
16BB-/	.	.	.	.	.	.	.	.	.	.	.	.	.	.	.
16C/	.	.	.	.	.	.	.	.	.	.	.	.	.	.	.
16BB-/JJ)	.	.	.	.	.	.	.	.	.	.	.	.	.	.	.
4E-^>\	2r	.	.	.	.	.	.	.	.	.	.	.	4r	.	.
4r	.	.	.	.	.	.	.	.	.	.	.	.	8.g/	Pour	.
.	.	.	.	.	.	.	.	.	.	.	.	.	16g/	pri-	.
=12	=12	=12	=12	=12	=12	=12	=12	=12	=12	=12	=12	=12	=12	=12	=12
4GG\ 4G	4d/ 4g 4bn	.	sf	1ryy	.	.	1ryy	.	.	1ryy	.	.	4bn\	-er	.
4r	4r	.	.	.	.	.	.	.	.	.	.	.	8.g/	aux	.
.	.	.	.	.	.	.	.	.	.	.	.	.	16g/	ge-	.
4CC/ 4C	4e-/ 4g 4cc	.	sf	.	.	.	.	.	.	.	.	.	4cc\	-noux	.
4r	4r	.	.	.	.	.	.	.	.	.	.	.	8.g/	du	.
.	.	.	.	.	.	.	.	.	.	.	.	.	16g/	pas-	.
=13	=13	=13	=13	=13	=13	=13	=13	=13	=13	=13	=13	=13	=13	=13	=13
4GG/ 4G	4d/ 4g 4bn 4dd	.	sf	1ryy	.	.	1ryy	.	.	1ryy	.	.	4dd\	-teur	.
4r	4r	.	.	.	.	.	.	.	.	.	.	.	8.a-/	sou-	.
.	.	.	.	.	.	.	.	.	.	.	.	.	16g/	-ve-	.
4CC/ 4C	4e-\ 4g 4cc 4ee-	.	sf	.	.	.	.	.	.	.	.	.	2ee-\	-rȧin	.
4r	4r	.	.	.	.	.	.	.	.	.	.	.	.	.	.
!!LO:LB:g=original
=14	=14	=14	=14	=14	=14	=14	=14	=14	=14	=14	=14	=14	=14	=14	=14
4AAAn/ 4AAn	4r	.	.	1ryy	.	.	1ryy	.	.	1ryy	.	.	2r	.	.
2.AA:\ 2.E-: 2.F#X: 2.A-:	2.e-:\ 2.f#X: 2.cc: 2.ee-:	.	.	.	.	.	.	.	.	.	.	.	.	.	.
.	.	.	.	.	.	.	.	.	.	.	.	.	8.r	.	.
.	.	.	.	.	.	.	.	.	.	.	.	.	16ee-\	Le	.
.	.	.	.	.	.	.	.	.	.	.	.	.	8.dd\	Po-	.
.	.	.	.	.	.	.	.	.	.	.	.	.	16cc\	-lo-	.
=15	=15	=15	=15	=15	=15	=15	=15	=15	=15	=15	=15	=15	=15	=15	=15
4BB-\ 4B-	4r	.	.	1ryy	.	.	1ryy	.	.	1ryy	.	.	4.b-\	-nais	.
4r	4e-\ 4g 4ee-	.	.	.	.	.	.	.	.	.	.	.	.	.	.
.	.	.	.	.	.	.	.	.	.	.	.	.	8b-\	a	.
4BB-\ 4An	4r	.	.	.	.	.	.	.	.	.	.	.	4an\	fuis	.
4r	[4e-\ 4f#X [4ee-	.	.	.	.	.	.	.	.	.	.	.	8.a\	son	.
.	.	.	.	.	.	.	.	.	.	.	.	.	16a\	Pa-	.
=16	=16	=16	=16	=16	=16	=16	=16	=16	=16	=16	=16	=16	=16	=16	=16
*	*^	*	*	*	*	*	*	*	*	*	*	*	*	*	*
4BB-\ 4E- 4F#X 4An	4f#X/ 4ee-]	8e-\L]	.	.	1ryy	.	.	1ryy	.	.	1ryy	.	.	2.cc\	-lais	.
.	.	(>8e-\	.	.	.	.	.	.	.	.	.	.	.	.	.	.
2.BB-^>\ 2.E- 2.F# 2.A	4ryy	8f#\	.	.	.	.	.	.	.	.	.	.	.	.	.	.
.	.	8an\J	.	.	.	.	.	.	.	.	.	.	.	.	.	.
.	2ryy	8cc\L	.	.	.	.	.	.	.	.	.	.	.	.	.	.
.	.	8a\	.	.	.	.	.	.	.	.	.	.	.	.	.	.
.	.	8f#\	.	.	.	.	.	.	.	.	.	.	.	8.cc\	ou	.
.	.	8e-\J)	.	.	.	.	.	.	.	.	.	.	.	.	.	.
.	.	.	.	.	.	.	.	.	.	.	.	.	.	16dd\	son	.
*	*v	*v	*	*	*	*	*	*	*	*	*	*	*	*	*	*
=17	=17	=17	=17	=17	=17	=17	=17	=17	=17	=17	=17	=17	=17	=17	=17
4BB-\ 4G-X	4e-^/ 4an	.	.	1ryy	.	.	1ryy	.	.	1ryy	.	.	4cc\	chau-	.
4BB-\ 4F	4d/ 4b-	.	.	.	.	.	.	.	.	.	.	.	4b-\	-me	.
4BBB-/ 4BB-	(>16b-\LL	.	<	.	.	.	.	.	.	.	.	.	2r	.	.
.	16cc\	.	.	.	.	.	.	.	.	.	.	.	.	.	.
.	16dd\	.	.	.	.	.	.	.	.	.	.	.	.	.	.
.	16ee-\JJ	.	.	.	.	.	.	.	.	.	.	.	.	.	.
4r	16ff\LL	.	.	.	.	.	.	.	.	.	.	.	.	.	.
.	16gg\	.	.	.	.	.	.	.	.	.	.	.	.	.	.
.	16aa-X\	.	.	.	.	.	.	.	.	.	.	.	.	.	.
.	16ff\JJ)	.	[	.	.	.	.	.	.	.	.	.	.	.	.
!!LO:PB:g=original
=18	=18	=18	=18	=18	=18	=18	=18	=18	=18	=18	=18	=18	=18	=18	=18
2BB-\ 2F 2A-	(16bb-\LL	.	.	1ryy	.	.	1ryy	.	.	1ryy	.	.	4b-\	A-	.
.	16aa-\	.	.	.	.	.	.	.	.	.	.	.	.	.	.
.	16ff\	.	.	.	.	.	.	.	.	.	.	.	.	.	.
.	16dd\JJ	.	.	.	.	.	.	.	.	.	.	.	.	.	.
.	8b-\)	.	.	.	.	.	.	.	.	.	.	.	8.b-\	-vec	.
.	8r	.	.	.	.	.	.	.	.	.	.	.	.	.	.
.	.	.	.	.	.	.	.	.	.	.	.	.	16b-\	ce	.
2BB-\ 2F 2A-	4r	.	.	.	.	.	.	.	.	.	.	.	4.a-X/	ten-	.
.	[<4f\ [>4b- [>4dd	.	.	.	.	.	.	.	.	.	.	.	.	.	.
.	.	.	.	.	.	.	.	.	.	.	.	.	8f/	-dre ac-	.
=19	=19	=19	=19	=19	=19	=19	=19	=19	=19	=19	=19	=19	=19	=19	=19
*^	*	*	*	*	*	*	*	*	*	*	*	*	*	*	*
2BB-\ 2F 2A-	2ryy	8f\L] 8b-] 8dd]	.	<	1ryy	.	.	1ryy	.	.	1ryy	.	.	4d/	-cent	.
.	.	(8aa-\	.	.	.	.	.	.	.	.	.	.	.	.	.	.
.	.	8ff\	.	.	.	.	.	.	.	.	.	.	.	8d/	qui	.
.	.	8dd\J)	.	[	.	.	.	.	.	.	.	.	.	8f/	des	.
2F/ 2A-	4.BB-\	8r	.	.	.	.	.	.	.	.	.	.	.	4a-/	pleurs	.
.	.	(8ff\L	.	>	.	.	.	.	.	.	.	.	.	.	.	.
.	.	8dd\	.	.	.	.	.	.	.	.	.	.	.	8a-/	est	.
.	8BBn\	8a-\J)	.	]]	.	.	.	.	.	.	.	.	.	8a-/	le	.
*v	*v	*	*	*	*	*	*	*	*	*	*	*	*	*	*	*
=20	=20	=20	=20	=20	=20	=20	=20	=20	=20	=20	=20	=20	=20	=20	=20
(>4BBn\ 4A-	4f\ 4dd 4ff	.	>	1ryy	.	.	1ryy	.	.	1ryy	.	.	4a-/	bau-	.
4C\) 4G	[<4e-\ 4cc 4ee-	.	]	.	.	.	.	.	.	.	.	.	4g/	-me	.
2r	(>8e-/L]	.	.	.	.	.	.	.	.	.	.	.	2r	.	.
.	16f/L	.	.	.	.	.	.	.	.	.	.	.	.	.	.
.	16g/JJ	.	.	.	.	.	.	.	.	.	.	.	.	.	.
.	16a-\LL	.	.	.	.	.	.	.	.	.	.	.	.	.	.
.	16b-\	.	.	.	.	.	.	.	.	.	.	.	.	.	.
.	16cc\	.	.	.	.	.	.	.	.	.	.	.	.	.	.
.	16dd\JJ)	.	.	.	.	.	.	.	.	.	.	.	.	.	.
=21	=21	=21	=21	=21	=21	=21	=21	=21	=21	=21	=21	=21	=21	=21	=21
!	!	!	!	!	!	!	!	!	!	!	!	!	!	!	!LO:DY:a
!	!	!	!	!	!	!	!	!	!	!	!	!	!	!	!LO:HP:a
.	.	.	.	.	.	.	.	.	.	.	.	.	(<8qb-/	.	f <
4EE-/ 4E-	4.g\ 4.b- 4.ee-	.	f	1ryy	.	.	1ryy	.	.	1ryy	.	.	4.ee-\)	PIUS	.
4EE-/ 4E-	.	.	.	.	.	.	.	.	.	.	.	.	.	.	.
.	8e-/	.	.	.	.	.	.	.	.	.	.	.	8e-/	de	.
4BB-\ 4B-	4.g/	.	.	.	.	.	.	.	.	.	.	.	4.g/	la	.
4GG\ 4G	.	.	.	.	.	.	.	.	.	.	.	.	.	.	.
.	8b-/	.	.	.	.	.	.	.	.	.	.	.	8b-/	Po-	[[
!!LO:LB:g=original
=22	=22	=22	=22	=22	=22	=22	=22	=22	=22	=22	=22	=22	=22	=22	=22
4EE-/ 4E-	4ee-\	.	.	1ryy	.	.	1ryy	.	.	1ryy	.	.	2ee-\	-lo-	.
8.E-\L 8.G 8.B- 8.e-	8.g\L 8.b- 8.ee-	.	sf <	.	.	.	.	.	.	.	.	.	.	.	.
16E-\Jk 16G 16B- 16e-	16g\Jk 16b- 16ee-	.	.	.	.	.	.	.	.	.	.	.	.	.	.
4E-\ 4G 4B- 4e-	4g\ 4b- 4ee-	.	.	.	.	.	.	.	.	.	.	.	4e-/	-gne	.
4E-\ 4G 4B- 4e-	16gg\LL	.	[	.	.	.	.	.	.	.	.	.	4r	.	.
.	16ee-\	.	.	.	.	.	.	.	.	.	.	.	.	.	.
.	16b-\	.	.	.	.	.	.	.	.	.	.	.	.	.	.
.	16g\JJ	.	.	.	.	.	.	.	.	.	.	.	.	.	.
=23	=23	=23	=23	=23	=23	=23	=23	=23	=23	=23	=23	=23	=23	=23	=23
!	!	!	!	!	!	!	!	!	!	!	!	!	!	!	!LO:HP:a
4EE-/ 4E-	4e-\ 4f#X 4an 4cc 4ee-	.	ff	1ryy	.	.	1ryy	.	.	1ryy	.	.	4.e-/	a	<
8.E-\L 8.F#X 8.An 8.c	8.e-\L 8.f# 8.a 8.cc 8.ee-	.	.	.	.	.	.	.	.	.	.	.	.	.	.
.	.	.	.	.	.	.	.	.	.	.	.	.	8e-/	bé-	.
16E-\Jk 16F# 16A 16c	16e-\Jk 16f# 16a 16cc 16ee-	.	.	.	.	.	.	.	.	.	.	.	.	.	.
4E-\ 4F# 4A 4c	4e-\ 4f# 4a 4cc 4ee-	.	.	.	.	.	.	.	.	.	.	.	4g-X/	-ni	.
4E-\ 4F# 4A 4c	4e-\ 4f# 4a 4cc 4ee-	.	.	.	.	.	.	.	.	.	.	.	8.an\	le	.
.	.	.	.	.	.	.	.	.	.	.	.	.	16cc\	roy-	[[
=24	=24	=24	=24	=24	=24	=24	=24	=24	=24	=24	=24	=24	=24	=24	=24
2EE-/ 2E-	[<2e-\ [<2g [>2b- [>2ee-	.	f	1ryy	.	.	1ryy	.	.	1ryy	.	.	2ee-\	-au-	.
4E-\ 4e-	16e-\LL] 16g] 16b-] 16ee-]	.	.	.	.	.	.	.	.	.	.	.	4e-/	-me	.
!	!	!	!LO:HP:t=decres.	!	!	!	!	!	!	!	!	!	!	!	!
.	(>16g\	.	>	.	.	.	.	.	.	.	.	.	.	.	.
.	16b-\	.	.	.	.	.	.	.	.	.	.	.	.	.	.
.	16ee-\JJ	.	.	.	.	.	.	.	.	.	.	.	.	.	.
4E-\ 4e-	16gg\LL	.	.	.	.	.	.	.	.	.	.	.	4r	.	.
.	16ee-\	.	.	.	.	.	.	.	.	.	.	.	.	.	.
.	16b-\	.	.	.	.	.	.	.	.	.	.	.	.	.	.
.	16g\JJ)	.	.	.	.	.	.	.	.	.	.	.	.	.	.
=25	=25	=25	=25	=25	=25	=25	=25	=25	=25	=25	=25	=25	=25	=25	=25
2EE-/ 2E-	[<2e-/ 2g 2ee-	.	mf	1ryy	.	.	1ryy	.	.	1ryy	.	.	4.ee-\	a	.
.	.	.	.	.	.	.	.	.	.	.	.	.	8ee-\	bé-	.
2GG/ 2G	2e-^</] 2g 2b- 2dd	.	.	.	.	.	.	.	.	.	.	.	2dd\	-ni	.
!!LO:LB:g=original
=26	=26	=26	=26	=26	=26	=26	=26	=26	=26	=26	=26	=26	=26	=26	=26
2AA-\ 2A-	2e-^/ 2a- 2cc	.	.	1ryy	.	.	1ryy	.	.	1ryy	.	.	4.cc\	le	.
.	.	.	.	.	.	.	.	.	.	.	.	.	8cc\	royau-	.
2EEn/ 2En	2c^/ 2g 2b-	.	.	.	.	.	.	.	.	.	.	.	2b-\	-me	.
=27	=27	=27	=27	=27	=27	=27	=27	=27	=27	=27	=27	=27	=27	=27	=27
4FF/ 4F	4.f/ 4.a-	.	<	1ryy	.	.	1ryy	.	.	1ryy	.	.	4.a-/	a	.
4EE-X/ 4E-X	.	.	.	.	.	.	.	.	.	.	.	.	.	.	.
.	8f/ 8a-	.	.	.	.	.	.	.	.	.	.	.	8a-/	bé-	.
4DD/ 4D	4f/ 4a-	.	.	.	.	.	.	.	.	.	.	.	4a-/	-ni	.
4CC/ 4C	4f/ 4a-	.	[	.	.	.	.	.	.	.	.	.	8.a-/	le	.
.	.	.	.	.	.	.	.	.	.	.	.	.	16a-/	roy-	.
=28	=28	=28	=28	=28	=28	=28	=28	=28	=28	=28	=28	=28	=28	=28	=28
*	*^	*	*	*	*	*	*	*	*	*	*	*	*	*	*
2CC-X/ 2C-X	4.ff/	2f\ 2a-	.	sf	1ryy	.	.	1ryy	.	.	1ryy	.	.	(4.ff^>\	-au-	.
.	8ee-/	.	.	>	.	.	.	.	.	.	.	.	.	8ee-\)	.	.
2BBB-;>/ 2BB-	2f;>/ 2a- 2dd	2ryy	.	]	.	.	.	.	.	.	.	.	.	2dd;>\	-me	.
*	*v	*v	*	*	*	*	*	*	*	*	*	*	*	*	*	*
=29||	=29||	=29||	=29||	=29||	=29||	=29||	=29||	=29||	=29||	=29||	=29||	=29||	=29||	=29||	=29||
!	!	!	!	!	!	!	!	!	!	!	!	!	!LO:TX:a:t=All°. moderato.	!	!
4EE-/ 4E-	(<8e-/L 8g	.	p	1ryy	.	.	1ryy	.	.	1ryy	.	.	2r	.	.
.	8B-/	.	.	.	.	.	.	.	.	.	.	.	.	.	.
4r	8e-/ 8g	.	.	.	.	.	.	.	.	.	.	.	.	.	.
.	8B-/J	.	.	.	.	.	.	.	.	.	.	.	.	.	.
4E-\	8e-/L 8g 8b-	.	.	.	.	.	.	.	.	.	.	.	4r	.	.
.	8B-/	.	.	.	.	.	.	.	.	.	.	.	.	.	.
!	!	!	!	!	!	!	!	!	!	!	!	!	!	!	!LO:DY:a
4r	8e-/ 8g 8b-	.	.	.	.	.	.	.	.	.	.	.	4b-\	Pro-	p
.	8B-/J	.	.	.	.	.	.	.	.	.	.	.	.	.	.
=30	=30	=30	=30	=30	=30	=30	=30	=30	=30	=30	=30	=30	=30	=30	=30
2EE-/ 2E-	8e-/L 8g 8b-	.	.	1ryy	.	.	1ryy	.	.	1ryy	.	.	2b-\	-phê-	.
.	8B-/	.	.	.	.	.	.	.	.	.	.	.	.	.	.
.	8e-/ 8g 8b-	.	.	.	.	.	.	.	.	.	.	.	.	.	.
.	8B-/J	.	.	.	.	.	.	.	.	.	.	.	.	.	.
4E-\	8e-/L 8g	.	.	.	.	.	.	.	.	.	.	.	4g/	-te	.
.	8B-/	.	.	.	.	.	.	.	.	.	.	.	.	.	.
4D\	8f/ 8a-	.	.	.	.	.	.	.	.	.	.	.	8f/	de	.
.	8B-/J	.	.	.	.	.	.	.	.	.	.	.	8f/	bon	.
!!LO:LB:g=original
=31	=31	=31	=31	=31	=31	=31	=31	=31	=31	=31	=31	=31	=31	=31	=31
4EE-/ 4E-	8e-/L 8g	.	.	1ryy	.	.	1ryy	.	.	1ryy	.	.	2.e-/	heur	.
.	8B-/	.	.	.	.	.	.	.	.	.	.	.	.	.	.
4r	8b-/	.	.	.	.	.	.	.	.	.	.	.	.	.	.
.	8B-/J	.	.	.	.	.	.	.	.	.	.	.	.	.	.
4EE-/ 4E-	8e-/L 8g	.	.	.	.	.	.	.	.	.	.	.	.	.	.
.	8B-/	.	.	.	.	.	.	.	.	.	.	.	.	.	.
4r	8b-/	.	.	.	.	.	.	.	.	.	.	.	4g/	tu	.
.	8B-/J	.	.	.	.	.	.	.	.	.	.	.	.	.	.
=32	=32	=32	=32	=32	=32	=32	=32	=32	=32	=32	=32	=32	=32	=32	=32
4BBB-/ 4BB-	8f/L 8a- 8b-	.	.	1ryy	.	.	1ryy	.	.	1ryy	.	.	4b-\	gar-	.
.	8d/	.	<	.	.	.	.	.	.	.	.	.	.	.	.
4r	8f/ 8a- 8b-	.	.	.	.	.	.	.	.	.	.	.	4b-\	-des	.
.	8d/J)	.	[	.	.	.	.	.	.	.	.	.	.	.	.
.	.	.	.	.	.	.	.	.	.	.	.	.	(<8qdd/	.	.
4BB-\ 4B-	(8f/L 8a- 8cc	.	>	.	.	.	.	.	.	.	.	.	4cc\)	l'es-	.
.	8d/	.	.	.	.	.	.	.	.	.	.	.	.	.	.
4r	8b-/	.	.	.	.	.	.	.	.	.	.	.	4b-\	-pé-	.
.	8a-/J)	.	]	.	.	.	.	.	.	.	.	.	.	.	.
=33	=33	=33	=33	=33	=33	=33	=33	=33	=33	=33	=33	=33	=33	=33	=33
2EE-/ 2E-	(8g\L 8ee-	.	sf	1ryy	.	.	1ryy	.	.	1ryy	.	.	2ee-^\	-ran-	.
.	8e-\	.	.	.	.	.	.	.	.	.	.	.	.	.	.
.	8g\ 8ee-	.	.	.	.	.	.	.	.	.	.	.	.	.	.
.	8e-\J)	.	.	.	.	.	.	.	.	.	.	.	.	.	.
4E-\ 4B-	(8g\L 8dd	.	>	.	.	.	.	.	.	.	.	.	4dd\	-ce	.
.	8e-\	.	.	.	.	.	.	.	.	.	.	.	.	.	.
4An\	8f#X\ 8cc	.	.	.	.	.	.	.	.	.	.	.	4cc\	tu	.
.	8e-\J)	.	]	.	.	.	.	.	.	.	.	.	.	.	.
=34	=34	=34	=34	=34	=34	=34	=34	=34	=34	=34	=34	=34	=34	=34	=34
*^	*	*	*	*	*	*	*	*	*	*	*	*	*	*	*
4.E-/	[2EE-\	8e-/L 8g 8b-	.	.	1ryy	.	.	1ryy	.	.	1ryy	.	.	4.b-\	comp-	.
.	.	8B-/	.	.	.	.	.	.	.	.	.	.	.	.	.	.
.	.	8g/	.	.	.	.	.	.	.	.	.	.	.	.	.	.
8D/	.	8fn/J	.	.	.	.	.	.	.	.	.	.	.	8b-\	-tes	.
4E-/	2EE-\]	8e-/L	.	.	.	.	.	.	.	.	.	.	.	4g/	sur	.
.	.	8B-/	.	.	.	.	.	.	.	.	.	.	.	.	.	.
4r	.	8f/ 8a-	.	.	.	.	.	.	.	.	.	.	.	4f/	l'hon-	.
.	.	8B-/J	.	.	.	.	.	.	.	.	.	.	.	.	.	.
*v	*v	*	*	*	*	*	*	*	*	*	*	*	*	*	*	*
=35	=35	=35	=35	=35	=35	=35	=35	=35	=35	=35	=35	=35	=35	=35	=35
2.EE-/ 2.E-	8e-/L 8g	.	.	1ryy	.	.	1ryy	.	.	1ryy	.	.	4e-/	-neur	.
.	8B-/	.	.	.	.	.	.	.	.	.	.	.	.	.	.
!	!	!	!	!	!	!	!	!	!	!	!	!	!	!	!LO:HP:a
.	8e-/ 8g	.	.	.	.	.	.	.	.	.	.	.	4g/	l'hon-	<
.	8B-/J	.	.	.	.	.	.	.	.	.	.	.	.	.	.
.	8g/L 8b-	.	<	.	.	.	.	.	.	.	.	.	4b-\	-neur	.
.	8e-/	.	.	.	.	.	.	.	.	.	.	.	.	.	.
4EE-/ 4E-	8g/ 8cc	.	.	.	.	.	.	.	.	.	.	.	4cc\	pro-	[[
.	8e-/J	.	[	.	.	.	.	.	.	.	.	.	.	.	.
!!LO:PB:g=original
=36	=36	=36	=36	=36	=36	=36	=36	=36	=36	=36	=36	=36	=36	=36	=36
!	!	!	!	!	!	!	!	!	!	!	!	!	!	!	!LO:HP:t=cres
2DD/ 2D	8g/L 8b- 8dd	.	sf	1ryy	.	.	1ryy	.	.	1ryy	.	.	4dd\	-mis	<
.	8d/	.	.	.	.	.	.	.	.	.	.	.	.	.	.
.	8g/ 8b- 8dd	.	.	.	.	.	.	.	.	.	.	.	4dd\	a	.
.	8d/J	.	.	.	.	.	.	.	.	.	.	.	.	.	.
2DD/ 2D	8f#X/L 8an 8dd	.	sf	.	.	.	.	.	.	.	.	.	4dd\	la	.
.	8d/	.	.	.	.	.	.	.	.	.	.	.	.	.	.
.	8f#/ 8a 8dd	.	.	.	.	.	.	.	.	.	.	.	4dd\	souf-	.
.	8d/J	.	.	.	.	.	.	.	.	.	.	.	.	.	.
=37	=37	=37	=37	=37	=37	=37	=37	=37	=37	=37	=37	=37	=37	=37	=37
2.BBB-/ 2.BB-	8fn/L 8a-X 8dd	.	sf	1ryy	.	.	1ryy	.	.	1ryy	.	.	2dd^\	-fran-	.
.	8d/	.	.	.	.	.	.	.	.	.	.	.	.	.	.
!	!LO:TX:b:i:t=colla voce.	!	!	!	!	!	!	!	!	!	!	!	!	!	!
.	8f/ 8a- 8dd	.	.	.	.	.	.	.	.	.	.	.	.	.	.
.	8d/J	.	.	.	.	.	.	.	.	.	.	.	.	.	.
!	!	!	!	!	!	!	!	!	!	!	!	!	!LO:TX:a:i:t=espressivo.	!	!
.	(8f/L 8a- 8dd	.	>	.	.	.	.	.	.	.	.	.	4dd\	-ce	.
.	8d/	.	.	.	.	.	.	.	.	.	.	.	.	.	.
4DD/ 4D	8f/ 8cc	.	.	.	.	.	.	.	.	.	.	.	(8cc\L	Pon-	.
.	8b-/J)	.	]	.	.	.	.	.	.	.	.	.	8b-\J)	.	.
=38	=38	=38	=38	=38	=38	=38	=38	=38	=38	=38	=38	=38	=38	=38	=38
*^	*	*	*	*	*	*	*	*	*	*	*	*	*	*	*
2EE-/ 2E-	2ryy	8g/L 8ee-	.	.	1ryy	.	.	1ryy	.	.	1ryy	.	.	4ee-\	-ti-	.
.	.	8e-/	.	.	.	.	.	.	.	.	.	.	.	.	.	.
.	.	8g/ 8b-	.	.	.	.	.	.	.	.	.	.	.	4b-\	-fe	.
.	.	8B-/J	.	.	.	.	.	.	.	.	.	.	.	.	.	.
!	!	!	!	!	!	!	!	!	!	!	!	!	!	!	!	!LO:DY:a:rj
4E-/	2EE-\	8e-/L 8g	.	.	.	.	.	.	.	.	.	.	.	4g/	coeur	p
.	.	8B-/	.	.	.	.	.	.	.	.	.	.	.	.	.	.
4D/	.	8f/ 8a-	.	.	.	.	.	.	.	.	.	.	.	4f/	si	.
.	.	8B-/J	.	.	.	.	.	.	.	.	.	.	.	.	.	.
*v	*v	*	*	*	*	*	*	*	*	*	*	*	*	*	*	*
=39	=39	=39	=39	=39	=39	=39	=39	=39	=39	=39	=39	=39	=39	=39	=39
4EE-/ 4E-	8e-/L 8g	.	.	1ryy	.	.	1ryy	.	.	1ryy	.	.	2e-/	pur	.
.	8B-/	.	.	.	.	.	.	.	.	.	.	.	.	.	.
4r	8b-/	.	.	.	.	.	.	.	.	.	.	.	.	.	.
.	8B-/J	.	<	.	.	.	.	.	.	.	.	.	.	.	.
4EE-/ 4E-	8e-/L 8g	.	.	.	.	.	.	.	.	.	.	.	4r	.	.
.	8B-/J	.	.	.	.	.	.	.	.	.	.	.	.	.	.
!	!	!	!	!	!	!	!	!	!	!	!	!	!	!	!LO:HP:a
4r	8g\L 8b-	.	.	.	.	.	.	.	.	.	.	.	8g/	tu	<
.	8ee-\J	.	[	.	.	.	.	.	.	.	.	.	8g/	sou-	[[
=40	=40	=40	=40	=40	=40	=40	=40	=40	=40	=40	=40	=40	=40	=40	=40
*ped	*	*	*	*	*	*	*	*	*	*	*	*	*	*	*
!	!	!	!	!	!	!	!	!	!	!	!	!	!	!	!LO:DY:a:rj
2GGG/ 2GG	8bn\L 8dd 8gg	.	f	1ryy	.	.	1ryy	.	.	1ryy	.	.	(2gg\	-lè-	f
.	8g\	.	.	.	.	.	.	.	.	.	.	.	.	.	.
.	8b\ 8dd 8gg	.	.	.	.	.	.	.	.	.	.	.	.	.	.
*Xped	*	*	*	*	*	*	*	*	*	*	*	*	*	*	*
.	8g\J	.	.	.	.	.	.	.	.	.	.	.	.	.	.
*ped	*	*	*	*	*	*	*	*	*	*	*	*	*	*	*
2GG\ 2G	8cc\L 8ee- 8gg	.	.	.	.	.	.	.	.	.	.	.	4g/)	-ve	.
.	8g\	.	.	.	.	.	.	.	.	.	.	.	.	.	.
.	8cc\ 8ee- 8gg	.	.	.	.	.	.	.	.	.	.	.	4g/	le	.
*Xped	*	*	*	*	*	*	*	*	*	*	*	*	*	*	*
.	8g\J	.	.	.	.	.	.	.	.	.	.	.	.	.	.
!!LO:LB:g=original
=41	=41	=41	=41	=41	=41	=41	=41	=41	=41	=41	=41	=41	=41	=41	=41
*ped	*	*	*	*	*	*	*	*	*	*	*	*	*	*	*
2.GGG/ 2.GG	8bn\L 8dd 8gg	.	sf	1ryy	.	.	1ryy	.	.	1ryy	.	.	2.gg\	voi-	.
.	8g\	.	.	.	.	.	.	.	.	.	.	.	.	.	.
.	8b\ 8dd 8gg	.	.	.	.	.	.	.	.	.	.	.	.	.	.
.	8g\J	.	.	.	.	.	.	.	.	.	.	.	.	.	.
.	8b\L 8gg	.	.	.	.	.	.	.	.	.	.	.	.	.	.
.	(>8g\	.	.	.	.	.	.	.	.	.	.	.	.	.	.
4GG\ 4G	8b\	.	.	.	.	.	.	.	.	.	.	.	4dd\	-le	.
*Xped	*	*	*	*	*	*	*	*	*	*	*	*	*	*	*
.	8dd\J	.	.	.	.	.	.	.	.	.	.	.	.	.	.
=42	=42	=42	=42	=42	=42	=42	=42	=42	=42	=42	=42	=42	=42	=42	=42
*	*^	*	*	*	*	*	*	*	*	*	*	*	*	*	*
!	!LO:TX:b:i:t=piu dolce.	!	!	!	!	!	!	!	!	!	!	!	!	!	!	!
2AA-\ 2A-	4ff/	8cc\L	.	.	1ryy	.	.	1ryy	.	.	1ryy	.	.	4ff\	qui	.
.	.	8f\	.	.	.	.	.	.	.	.	.	.	.	.	.	.
.	4ee-/	8cc\	.	.	.	.	.	.	.	.	.	.	.	4ee-\	de	.
.	.	8f\J	.	.	.	.	.	.	.	.	.	.	.	.	.	.
2AA-\ 2A-	4dd/	8a-\L	.	.	.	.	.	.	.	.	.	.	.	4dd\	l'â-	.
.	.	8f\	.	.	.	.	.	.	.	.	.	.	.	.	.	.
.	4cc/)	8a-\	.	.	.	.	.	.	.	.	.	.	.	8ee-\	-ge	.
.	.	8f\J	.	.	.	.	.	.	.	.	.	.	.	8cc\	fu-	.
*	*v	*v	*	*	*	*	*	*	*	*	*	*	*	*	*	*
=43	=43	=43	=43	=43	=43	=43	=43	=43	=43	=43	=43	=43	=43	=43	=43
*ped	*	*	*	*	*	*	*	*	*	*	*	*	*	*	*
[2BB-\ [2B-	8r	.	.	1ryy	.	.	1ryy	.	.	1ryy	.	.	2.b-^>\	-tur	.
.	(8g\L	.	<	.	.	.	.	.	.	.	.	.	.	.	.
.	8b-X\	.	.	.	.	.	.	.	.	.	.	.	.	.	.
.	8ee-\J	.	[	.	.	.	.	.	.	.	.	.	.	.	.
4BB-\] 4B-]	8gg\L	.	>	.	.	.	.	.	.	.	.	.	.	.	.
.	8ee-\	.	.	.	.	.	.	.	.	.	.	.	.	.	.
4r	8b-\	.	.	.	.	.	.	.	.	.	.	.	4ee-\	ca-	.
*Xped	*	*	*	*	*	*	*	*	*	*	*	*	*	*	*
.	8g\J)	.	]	.	.	.	.	.	.	.	.	.	.	.	.
=44	=44	=44	=44	=44	=44	=44	=44	=44	=44	=44	=44	=44	=44	=44	=44
*	*^	*	*	*	*	*	*	*	*	*	*	*	*	*	*
!	!	!	!	!	!	!	!	!	!	!	!	!	!	!	!	!LO:HP:a
2BBB-/ 2BB-	4r	4ryy	.	.	1ryy	.	.	1ryy	.	.	1ryy	.	.	4f/	-che	<
.	(>2b-/	2.d\	.	.	.	.	.	.	.	.	.	.	.	4b-\	l'heu	[
!	!	!	!	!	!	!	!	!	!	!	!	!	!	!	!	!LO:HP:a
2BB-\ 2B-	.	.	.	.	.	.	.	.	.	.	.	.	.	4b-\	reu-	>
.	4a-/)	.	.	.	.	.	.	.	.	.	.	.	.	4a-\	-se é-	]
*	*v	*v	*	*	*	*	*	*	*	*	*	*	*	*	*	*
=45	=45	=45	=45	=45	=45	=45	=45	=45	=45	=45	=45	=45	=45	=45	=45
2BBn\ 2Bn	8f/L 8a-	.	>	1ryy	.	.	1ryy	.	.	1ryy	.	.	2a-/	-toi-	.
.	8d/	.	.	.	.	.	.	.	.	.	.	.	.	.	.
.	8f/ 8a-	.	]	.	.	.	.	.	.	.	.	.	.	.	.
.	8d/J	.	.	.	.	.	.	.	.	.	.	.	.	.	.
4C\ 4c	(8e-/L	.	<	.	.	.	.	.	.	.	.	.	4g/	-le	.
.	8cc/	.	.	.	.	.	.	.	.	.	.	.	.	.	.
4r	8g/	.	.	.	.	.	.	.	.	.	.	.	4r	.	.
.	8e-/J)	.	[	.	.	.	.	.	.	.	.	.	.	.	.
!!LO:LB:g=original
=46	=46	=46	=46	=46	=46	=46	=46	=46	=46	=46	=46	=46	=46	=46	=46
!	!	!	!	!	!	!	!	!	!	!	!	!	!	!	!LO:HP:a
2AA-\ 2A-	4f\	.	<	1ryy	.	.	1ryy	.	.	1ryy	.	.	4cc\	-de	<
.	(>8en\L	.	.	.	.	.	.	.	.	.	.	.	4cc\	l'â-	[
.	8f\J	.	.	.	.	.	.	.	.	.	.	.	.	.	.
!	!	!	!	!	!	!	!	!	!	!	!	!	!	!	!LO:HP:a
2AA-\ 2A-	8dd\L	.	[	.	.	.	.	.	.	.	.	.	4dd\	-ge	>
.	8f\	.	.	.	.	.	.	.	.	.	.	.	.	.	.
.	8cc\	.	.	.	.	.	.	.	.	.	.	.	4ee-\	fu-	]
.	8f\J)	.	.	.	.	.	.	.	.	.	.	.	.	.	.
=47	=47	=47	=47	=47	=47	=47	=47	=47	=47	=47	=47	=47	=47	=47	=47
*ped	*	*	*	*	*	*	*	*	*	*	*	*	*	*	*
2BB-\ 2B-	(8b-\L	.	.	1ryy	.	.	1ryy	.	.	1ryy	.	.	2.gg\	-tur	.
.	8e-\	.	.	.	.	.	.	.	.	.	.	.	.	.	.
.	8g\	.	.	.	.	.	.	.	.	.	.	.	.	.	.
.	8b-\J	.	.	.	.	.	.	.	.	.	.	.	.	.	.
4BBB-/ 4BB-	8ee-\L	.	.	.	.	.	.	.	.	.	.	.	.	.	.
.	8b-\	.	.	.	.	.	.	.	.	.	.	.	.	.	.
!	!	!	!	!	!	!	!	!	!	!	!	!	!	!	!LO:DY:a
4r	8g\	.	.	.	.	.	.	.	.	.	.	.	(8ee-\L	ca-	<
*Xped	*	*	*	*	*	*	*	*	*	*	*	*	*	*	*
.	8e-\J)	.	.	.	.	.	.	.	.	.	.	.	8b-\J)	.	[[
=48	=48	=48	=48	=48	=48	=48	=48	=48	=48	=48	=48	=48	=48	=48	=48
4BB-\ 4B-	8r	.	.	1ryy	.	.	1ryy	.	.	1ryy	.	.	4g/	-che	.
.	8d/L	.	.	.	.	.	.	.	.	.	.	.	.	.	.
4r	8f/	.	.	.	.	.	.	.	.	.	.	.	4f/	l'heu-	.
.	8d/J	.	.	.	.	.	.	.	.	.	.	.	.	.	.
4BBB-/ 4BB-	4r	.	.	.	.	.	.	.	.	.	.	.	4.b-^\	-reu-	.
4r	4d/ 4f 4b-	.	.	.	.	.	.	.	.	.	.	.	.	.	.
.	.	.	.	.	.	.	.	.	.	.	.	.	8b-\	-se e-	.
=49	=49	=49	=49	=49	=49	=49	=49	=49	=49	=49	=49	=49	=49	=49	=49
*	*	*	*	*	*	*	*	*	*	*	*	*	*^	*	*
[<2EE-/	(>8g\L	.	.	1ryy	.	.	1ryy	.	.	1ryy	.	.	2ee-/	2e-\	-toi-	.
.	8e-\	.	.	.	.	.	.	.	.	.	.	.	.	.	.	.
.	8g\	.	.	.	.	.	.	.	.	.	.	.	.	.	.	.
.	8b-\J	.	.	.	.	.	.	.	.	.	.	.	.	.	.	.
4EE-/] 4E-	8ee-\L	.	.	.	.	.	.	.	.	.	.	.	4e-/	4e-\	-le	.
.	8ff\	.	.	.	.	.	.	.	.	.	.	.	.	.	.	.
4r	8gg\	.	.	.	.	.	.	.	.	.	.	.	4r	4ryy	.	.
.	8ee-\J)	.	.	.	.	.	.	.	.	.	.	.	.	.	.	.
*	*	*	*	*	*	*	*	*	*	*	*	*	*v	*v	*	*
=50	=50	=50	=50	=50	=50	=50	=50	=50	=50	=50	=50	=50	=50	=50	=50
!	!LO:TX:b:i:t=con moto.	!	!	!	!	!	!	!	!	!	!	!	!	!	!
(16BB-\LL	[>2dd\	.	f	1ryy	.	.	1ryy	.	.	1ryy	.	.	1r	.	.
16F\	.	.	.	.	.	.	.	.	.	.	.	.	.	.	.
16A-\	.	.	.	.	.	.	.	.	.	.	.	.	.	.	.
16B-\JJ	.	.	.	.	.	.	.	.	.	.	.	.	.	.	.
16A-\LL	.	.	.	.	.	.	.	.	.	.	.	.	.	.	.
16B-\	.	.	.	.	.	.	.	.	.	.	.	.	.	.	.
16A-\	.	.	.	.	.	.	.	.	.	.	.	.	.	.	.
16F\JJ)	.	.	.	.	.	.	.	.	.	.	.	.	.	.	.
4BB-\	8dd\L]	.	<	.	.	.	.	.	.	.	.	.	.	.	.
.	(>8ff\	.	.	.	.	.	.	.	.	.	.	.	.	.	.
4D\	8b-\	.	.	.	.	.	.	.	.	.	.	.	.	.	.
.	8a-\J)	.	[	.	.	.	.	.	.	.	.	.	.	.	.
!!LO:LB:g=original
=51	=51	=51	=51	=51	=51	=51	=51	=51	=51	=51	=51	=51	=51	=51	=51
(16E-\LL	4.g\	.	.	1ryy	.	.	1ryy	.	.	1ryy	.	.	1r	.	.
16G\	.	.	.	.	.	.	.	.	.	.	.	.	.	.	.
16B-\	.	.	.	.	.	.	.	.	.	.	.	.	.	.	.
16c\JJ	.	.	.	.	.	.	.	.	.	.	.	.	.	.	.
16B-\LL	.	.	.	.	.	.	.	.	.	.	.	.	.	.	.
16c\	.	.	.	.	.	.	.	.	.	.	.	.	.	.	.
16B-\	8a-/	.	.	.	.	.	.	.	.	.	.	.	.	.	.
16G\JJ)	.	.	.	.	.	.	.	.	.	.	.	.	.	.	.
4E-\	4b-\	.	.	.	.	.	.	.	.	.	.	.	.	.	.
4r	4r	.	.	.	.	.	.	.	.	.	.	.	.	.	.
=52	=52	=52	=52	=52	=52	=52	=52	=52	=52	=52	=52	=52	=52	=52	=52
(16BB-\LL	[2dd\	.	<	1ryy	.	.	1ryy	.	.	1ryy	.	.	1r	.	.
16F\	.	.	.	.	.	.	.	.	.	.	.	.	.	.	.
16A-\	.	.	.	.	.	.	.	.	.	.	.	.	.	.	.
16B-\JJ	.	.	.	.	.	.	.	.	.	.	.	.	.	.	.
16A-\LL	.	.	.	.	.	.	.	.	.	.	.	.	.	.	.
16B-\	.	.	[	.	.	.	.	.	.	.	.	.	.	.	.
16A-\	.	.	.	.	.	.	.	.	.	.	.	.	.	.	.
16F\JJ)	.	.	.	.	.	.	.	.	.	.	.	.	.	.	.
4BB-\	8dd\L]	.	>	.	.	.	.	.	.	.	.	.	.	.	.
.	8ff\	.	.	.	.	.	.	.	.	.	.	.	.	.	.
8A-\L	8cc\	.	.	.	.	.	.	.	.	.	.	.	.	.	.
8F\J	8dd\J	.	]	.	.	.	.	.	.	.	.	.	.	.	.
=53	=53	=53	=53	=53	=53	=53	=53	=53	=53	=53	=53	=53	=53	=53	=53
(16E-\LL	2b-\	.	<	1ryy	.	.	1ryy	.	.	1ryy	.	.	2r	.	.
16G\	.	.	.	.	.	.	.	.	.	.	.	.	.	.	.
16B-\	.	.	.	.	.	.	.	.	.	.	.	.	.	.	.
16c\JJ	.	.	[	.	.	.	.	.	.	.	.	.	.	.	.
16B-\LL	.	.	>	.	.	.	.	.	.	.	.	.	.	.	.
16c\	.	.	.	.	.	.	.	.	.	.	.	.	.	.	.
16B-\	.	.	.	.	.	.	.	.	.	.	.	.	.	.	.
16G\JJ	.	.	]	.	.	.	.	.	.	.	.	.	.	.	.
4E-\)	2r	.	.	.	.	.	.	.	.	.	.	.	4r	.	.
!	!	!	!	!	!	!	!	!	!	!	!	!	!	!	!LO:DY:a
4r	.	.	.	.	.	.	.	.	.	.	.	.	4b-\	I-	f
=54	=54	=54	=54	=54	=54	=54	=54	=54	=54	=54	=54	=54	=54	=54	=54
!	!LO:TX:b:i:t=sostenuto.	!	!LO:DY:b:rj	!	!	!	!	!	!	!	!	!	!	!	!
2EE-/ 2E-	2e-/ 2g-X 2b- 2ee-	.	f	1ryy	.	.	1ryy	.	.	1ryy	.	.	2ee-\	-ma-	.
4EE-/ 4E-	4e-/ 4a- 4cc-X 4ee-	.	.	.	.	.	.	.	.	.	.	.	4e-/	-ge	.
4EE-/ 4E-	4e-/ 4a- 4cc- 4ee-	.	.	.	.	.	.	.	.	.	.	.	4ee-\	de	.
!!LO:PB:g=original
=55	=55	=55	=55	=55	=55	=55	=55	=55	=55	=55	=55	=55	=55	=55	=55
2EE-/ 2E-	2e-\ 2g-X 2b- 2ee-	.	.	1ryy	.	.	1ryy	.	.	1ryy	.	.	2ee-\	de-	.
4E-\ 4G-X	(8b-\L	.	.	.	.	.	.	.	.	.	.	.	4b-\	-sus	.
.	8e-\	.	.	.	.	.	.	.	.	.	.	.	.	.	.
4r	8g-\	.	.	.	.	.	.	.	.	.	.	.	4r	.	.
.	8b-\J)	.	.	.	.	.	.	.	.	.	.	.	.	.	.
=56	=56	=56	=56	=56	=56	=56	=56	=56	=56	=56	=56	=56	=56	=56	=56
*	*^	*	*	*	*	*	*	*	*	*	*	*	*	*	*
2EE-/ 2E-	2e-\ 2g-X 2b- 2ee-	2ryy	.	sf	1ryy	.	.	1ryy	.	.	1ryy	.	.	4ee-\	dans	.
.	.	.	.	.	.	.	.	.	.	.	.	.	.	4ee-\	l'o-	.
2FF/ 2F	4dd-X/	2d-X\ 2a-	.	>	.	.	.	.	.	.	.	.	.	4dd-X\	-ra-	.
.	4cc-X/	.	.	.	.	.	.	.	.	.	.	.	.	8cc-X\	-ge	.
.	.	.	.	]	.	.	.	.	.	.	.	.	.	8cc-\	tran-	.
*	*v	*v	*	*	*	*	*	*	*	*	*	*	*	*	*	*
=57	=57	=57	=57	=57	=57	=57	=57	=57	=57	=57	=57	=57	=57	=57	=57
[2GG-X\ [2G-X	(8g-X/L 8b-	.	.	1ryy	.	.	1ryy	.	.	1ryy	.	.	2b-\	-quil-	.
.	8d-X/	.	.	.	.	.	.	.	.	.	.	.	.	.	.
.	8g-/	.	.	.	.	.	.	.	.	.	.	.	.	.	.
.	8a-/J)	.	.	.	.	.	.	.	.	.	.	.	.	.	.
4GG-\] 4G-]	4b-\	.	.	.	.	.	.	.	.	.	.	.	4b-\	-le	.
4r	4b-\	.	.	.	.	.	.	.	.	.	.	.	4r	.	.
=58	=58	=58	=58	=58	=58	=58	=58	=58	=58	=58	=58	=58	=58	=58	=58
2C-X\ 2c-X	2e-/ 2a-	.	p	1ryy	.	.	1ryy	.	.	1ryy	.	.	2a-/	Dé-	.
2D-X\ 2d-X	2f/ 2a-	.	.	.	.	.	.	.	.	.	.	.	4a-/	-ja	.
.	.	.	.	.	.	.	.	.	.	.	.	.	4a-/	de	.
=59	=59	=59	=59	=59	=59	=59	=59	=59	=59	=59	=59	=59	=59	=59	=59
4GG-/	(8g-X/L 8b-	.	.	1ryy	.	.	1ryy	.	.	1ryy	.	.	2.g-X/	tes	.
.	8d-X/	.	>	.	.	.	.	.	.	.	.	.	.	.	.
4B-\	8dd/	.	.	.	.	.	.	.	.	.	.	.	.	.	.
.	8d-/J	.	.	.	.	.	.	.	.	.	.	.	.	.	.
!LO:SIC:v:s=4G-\	!	!	!	!	!	!	!	!	!	!	!	!	!	!	!
4G\	8g-/L 8b-	.	.	.	.	.	.	.	.	.	.	.	.	.	.
.	8d-/	.	.	.	.	.	.	.	.	.	.	.	.	.	.
4D-X\	8b-/	.	]	.	.	.	.	.	.	.	.	.	4b-\	ver-	.
.	8g-/J)	.	.	.	.	.	.	.	.	.	.	.	.	.	.
!!LO:LB:g=original
=60	=60	=60	=60	=60	=60	=60	=60	=60	=60	=60	=60	=60	=60	=60	=60
4C-X/	8e-/ 8an	.	sf	1ryy	.	.	1ryy	.	.	1ryy	.	.	4an/	-tus	.
.	4e-/ 4a	.	<	.	.	.	.	.	.	.	.	.	.	.	.
!	!	!	!	!	!	!	!	!	!	!	!	!	!	!	!LO:HP:a
4c-X^>\	.	.	.	.	.	.	.	.	.	.	.	.	8a\	l'au-	<
.	4e-/ 4a	.	.	.	.	.	.	.	.	.	.	.	8a\	-ré-	.
4C-^>/	.	.	.	.	.	.	.	.	.	.	.	.	4a\	-o-	.
.	4e-/ 4f 4a	.	.	.	.	.	.	.	.	.	.	.	.	.	.
4C-^>/	.	.	.	.	.	.	.	.	.	.	.	.	8ee-\	-le	.
.	8e-/ 8f 8a	.	[	.	.	.	.	.	.	.	.	.	8ee-\	scin-	[
=61	=61	=61	=61	=61	=61	=61	=61	=61	=61	=61	=61	=61	=61	=61	=61
4BB-/	4dn/ 4f 4b-X	.	sf	1ryy	.	.	1ryy	.	.	1ryy	.	.	2dd\	-til-	.
4BB-/	(16b-\LL	.	.	.	.	.	.	.	.	.	.	.	.	.	.
.	16cc\	.	.	.	.	.	.	.	.	.	.	.	.	.	.
.	16b-\	.	.	.	.	.	.	.	.	.	.	.	.	.	.
.	16an\JJ	.	.	.	.	.	.	.	.	.	.	.	.	.	.
4BBB-/	16b-\LL	.	.	.	.	.	.	.	.	.	.	.	4b-\	-le	.
.	16dd\	.	.	.	.	.	.	.	.	.	.	.	.	.	.
.	16ff\	.	.	.	.	.	.	.	.	.	.	.	.	.	.
.	16dd\JJ	.	.	.	.	.	.	.	.	.	.	.	.	.	.
8BB-/L	4b-\)	.	.	.	.	.	.	.	.	.	.	.	4r	.	.
8D/J	.	.	.	.	.	.	.	.	.	.	.	.	.	.	.
=62	=62	=62	=62	=62	=62	=62	=62	=62	=62	=62	=62	=62	=62	=62	=62
2F\	8an\L	.	f	1ryy	.	.	1ryy	.	.	1ryy	.	.	1r	.	.
.	8gn\ 8b-	.	<	.	.	.	.	.	.	.	.	.	.	.	.
.	8a\ 8cc	.	.	.	.	.	.	.	.	.	.	.	.	.	.
.	8b-\J 8dd	.	.	.	.	.	.	.	.	.	.	.	.	.	.
2FF/	8cc\L 8ee-	.	.	.	.	.	.	.	.	.	.	.	.	.	.
.	8dd\ 8ff	.	.	.	.	.	.	.	.	.	.	.	.	.	.
.	8cc\ 8ee- 8gg	.	.	.	.	.	.	.	.	.	.	.	.	.	.
.	8cc\J 8aan	.	[	.	.	.	.	.	.	.	.	.	.	.	.
=63	=63	=63	=63	=63	=63	=63	=63	=63	=63	=63	=63	=63	=63	=63	=63
4BB-/	8dd/L 8bb-	.	f	1ryy	.	.	1ryy	.	.	1ryy	.	.	2r	.	.
.	16B-/L 16b-	.	.	.	.	.	.	.	.	.	.	.	.	.	.
.	16B-/JJ 16b-	.	.	.	.	.	.	.	.	.	.	.	.	.	.
4BBB-^>/ 4BB-	8B-/L 8b-	.	.	.	.	.	.	.	.	.	.	.	.	.	.
.	8B-/J 8b-	.	.	.	.	.	.	.	.	.	.	.	.	.	.
2r	8B-/L 8b-	.	.	.	.	.	.	.	.	.	.	.	4r	.	.
.	8B-/ 8b-	.	.	.	.	.	.	.	.	.	.	.	.	.	.
.	8B-/ 8b-	.	.	.	.	.	.	.	.	.	.	.	4b-\	Tu	.
.	8B-/J 8b-	.	.	.	.	.	.	.	.	.	.	.	.	.	.
!!LO:LB:g=original
=64	=64	=64	=64	=64	=64	=64	=64	=64	=64	=64	=64	=64	=64	=64	=64
!	!LO:TUP:b	!	!	!	!	!	!	!	!	!	!	!	!	!	!
2EE-/ 2E-	(12b-/L	.	mf	1ryy	.	.	1ryy	.	.	1ryy	.	.	2b-\	vois	.
.	12g/	.	.	.	.	.	.	.	.	.	.	.	.	.	.
.	12e-/	.	.	.	.	.	.	.	.	.	.	.	.	.	.
.	12B-/	.	.	.	.	.	.	.	.	.	.	.	.	.	.
.	12g/	.	.	.	.	.	.	.	.	.	.	.	.	.	.
!	!LO:TX:b:i:t=legato.	!	!	!	!	!	!	!	!	!	!	!	!	!	!
.	12e-/J)	.	.	.	.	.	.	.	.	.	.	.	.	.	.
*	*Xtuplet	*	*	*	*	*	*	*	*	*	*	*	*	*	*
4E-\	(12e-/L 12g	.	.	.	.	.	.	.	.	.	.	.	4g/	des	.
.	12B-/	.	.	.	.	.	.	.	.	.	.	.	.	.	.
.	12b-/J)	.	.	.	.	.	.	.	.	.	.	.	.	.	.
4BB-\	(12d/L 12f	.	.	.	.	.	.	.	.	.	.	.	8f/	Po-	.
.	12B-/	.	.	.	.	.	.	.	.	.	.	.	.	.	.
.	.	.	.	.	.	.	.	.	.	.	.	.	8f/	-lo-	.
.	12b-/J)	.	.	.	.	.	.	.	.	.	.	.	.	.	.
=65	=65	=65	=65	=65	=65	=65	=65	=65	=65	=65	=65	=65	=65	=65	=65
*	*tuplet	*	*	*	*	*	*	*	*	*	*	*	*	*	*
!	!LO:TUP:b	!	!	!	!	!	!	!	!	!	!	!	!	!	!
2EE-/ 2E-	(12e-/L	.	.	1ryy	.	.	1ryy	.	.	1ryy	.	.	2e-/	-nais	.
.	12B-/	.	.	.	.	.	.	.	.	.	.	.	.	.	.
.	12e-/	.	.	.	.	.	.	.	.	.	.	.	.	.	.
.	12g/	.	.	.	.	.	.	.	.	.	.	.	.	.	.
.	12e-/	.	.	.	.	.	.	.	.	.	.	.	.	.	.
.	12g/J	.	.	.	.	.	.	.	.	.	.	.	.	.	.
!	!LO:TUP:b	!	!	!	!	!	!	!	!	!	!	!	!	!	!
4EE-/ 4E-	12b-/L	.	.	.	.	.	.	.	.	.	.	.	4e-/	la	.
.	12g/	.	.	.	.	.	.	.	.	.	.	.	.	.	.
.	12e-/	.	.	.	.	.	.	.	.	.	.	.	.	.	.
4r	12g/	.	.	.	.	.	.	.	.	.	.	.	8g/	na-	.
.	12e-/	.	.	.	.	.	.	.	.	.	.	.	.	.	.
.	.	.	.	.	.	.	.	.	.	.	.	.	8g/	-ti-	.
.	12B-/J)	.	.	.	.	.	.	.	.	.	.	.	.	.	.
=66	=66	=66	=66	=66	=66	=66	=66	=66	=66	=66	=66	=66	=66	=66	=66
!	!LO:TUP:b	!	!	!	!	!	!	!	!	!	!	!	!	!	!
((2BBB-/ 2BB-	12b-/L	.	<	1ryy	.	.	1ryy	.	.	1ryy	.	.	2b-\	-on	.
.	12d/	.	.	.	.	.	.	.	.	.	.	.	.	.	.
.	12f/	.	.	.	.	.	.	.	.	.	.	.	.	.	.
.	12b-/	.	.	.	.	.	.	.	.	.	.	.	.	.	.
.	12f/	.	.	.	.	.	.	.	.	.	.	.	.	.	.
.	12d/J	.	[	.	.	.	.	.	.	.	.	.	.	.	.
.	.	.	.	.	.	.	.	.	.	.	.	.	(<8qdd/	.	.
!	!LO:TUP:b	!	!	!	!	!	!	!	!	!	!	!	!	!	!
4BB-\)) 4B-	12r	.	.	.	.	.	.	.	.	.	.	.	(4.cc\)	meur-	.
.	12d/L	.	>	.	.	.	.	.	.	.	.	.	.	.	.
.	12f/	.	.	.	.	.	.	.	.	.	.	.	.	.	.
4r	12b-/	.	.	.	.	.	.	.	.	.	.	.	.	.	.
.	12f/	.	.	.	.	.	.	.	.	.	.	.	.	.	.
.	.	.	.	.	.	.	.	.	.	.	.	.	8b-\)	.	.
.	12d/J	.	]	.	.	.	.	.	.	.	.	.	.	.	.
=67	=67	=67	=67	=67	=67	=67	=67	=67	=67	=67	=67	=67	=67	=67	=67
!	!LO:TUP:b	!	!	!	!	!	!	!	!	!	!	!	!	!	!
4EE-\ 4BB- 4G	12b-/L	.	p	1ryy	.	.	1ryy	.	.	1ryy	.	.	2b-\	-tri-	.
.	12g/	.	.	.	.	.	.	.	.	.	.	.	.	.	.
.	12e-/	.	.	.	.	.	.	.	.	.	.	.	.	.	.
4r	12B-/	.	.	.	.	.	.	.	.	.	.	.	.	.	.
.	12e-/	.	.	.	.	.	.	.	.	.	.	.	.	.	.
.	12g/J	.	.	.	.	.	.	.	.	.	.	.	.	.	.
!	!LO:TUP:a	!	!	!	!	!	!	!	!	!	!	!	!	!	!
4EE-/	12b-\L	.	.	.	.	.	.	.	.	.	.	.	4g/	-e	.
.	12g\	.	.	.	.	.	.	.	.	.	.	.	.	.	.
.	12b-\	.	.	.	.	.	.	.	.	.	.	.	.	.	.
4r	12ee-\	.	.	.	.	.	.	.	.	.	.	.	8r	.	.
.	12b-\	.	.	.	.	.	.	.	.	.	.	.	.	.	.
.	.	.	.	.	.	.	.	.	.	.	.	.	8b-/	re	.
.	12g\J	.	.	.	.	.	.	.	.	.	.	.	.	.	.
=68	=68	=68	=68	=68	=68	=68	=68	=68	=68	=68	=68	=68	=68	=68	=68
!	!LO:TUP:b	!	!	!	!	!	!	!	!	!	!	!	!	!	!
2EE-/ 2E-	12b-/L	.	f	1ryy	.	.	1ryy	.	.	1ryy	.	.	2b-^>\	nai-	.
.	12g/	.	.	.	.	.	.	.	.	.	.	.	.	.	.
.	12e-/	.	.	.	.	.	.	.	.	.	.	.	.	.	.
.	12B-/	.	.	.	.	.	.	.	.	.	.	.	.	.	.
.	12g/	.	.	.	.	.	.	.	.	.	.	.	.	.	.
.	12e-/J	.	.	.	.	.	.	.	.	.	.	.	.	.	.
*	*Xtuplet	*	*	*	*	*	*	*	*	*	*	*	*	*	*
4E-\	12e-/L 12g	.	.	.	.	.	.	.	.	.	.	.	4b-\	-tre	.
.	12B-/	.	.	.	.	.	.	.	.	.	.	.	.	.	.
.	12b-/J	.	.	.	.	.	.	.	.	.	.	.	.	.	.
4BB-\	12d/L 12f	.	.	.	.	.	.	.	.	.	.	.	8g/	pour	.
.	12B-/	.	.	.	.	.	.	.	.	.	.	.	.	.	.
.	.	.	.	.	.	.	.	.	.	.	.	.	8f/	ja-	.
.	12b-/J	.	.	.	.	.	.	.	.	.	.	.	.	.	.
!!LO:LB:g=original
=69	=69	=69	=69	=69	=69	=69	=69	=69	=69	=69	=69	=69	=69	=69	=69
*	*tuplet	*	*	*	*	*	*	*	*	*	*	*	*	*	*
!	!LO:TUP:b	!	!	!	!	!	!	!	!	!	!	!	!	!	!LO:HP:a
2EE-/ 2E-	12g/L	.	.	1ryy	.	.	1ryy	.	.	1ryy	.	.	2e-/	-mais	<
.	12B-/	.	.	.	.	.	.	.	.	.	.	.	.	.	.
.	12e-/	.	.	.	.	.	.	.	.	.	.	.	.	.	.
.	12g/	.	.	.	.	.	.	.	.	.	.	.	.	.	.
.	12e-/	.	.	.	.	.	.	.	.	.	.	.	.	.	.
.	12g/J	.	.	.	.	.	.	.	.	.	.	.	.	.	.
!	!LO:TUP:a	!	!	!	!	!	!	!	!	!	!	!	!	!	!
4EE-/ 4E-	12e-\L	.	.	.	.	.	.	.	.	.	.	.	4g/	dans	.
.	12g\	.	.	.	.	.	.	.	.	.	.	.	.	.	.
.	12a-\	.	.	.	.	.	.	.	.	.	.	.	.	.	.
4r	12b-\	.	.	.	.	.	.	.	.	.	.	.	4b-\	sa	[
.	12cc\	.	.	.	.	.	.	.	.	.	.	.	.	.	.
.	12dd\J	.	.	.	.	.	.	.	.	.	.	.	.	.	.
=70	=70	=70	=70	=70	=70	=70	=70	=70	=70	=70	=70	=70	=70	=70	=70
*^	*	*	*	*	*	*	*	*	*	*	*	*	*	*	*
!	!	!LO:TUP:b	!	!	!	!	!	!	!	!	!	!	!	!	!	!
(>[2EE-/ 2E-	2ryy	12ee-/L	.	sf	1ryy	.	.	1ryy	.	.	1ryy	.	.	2ee-^\	li-	.
.	.	12b-/	.	.	.	.	.	.	.	.	.	.	.	.	.	.
.	.	12g/	.	.	.	.	.	.	.	.	.	.	.	.	.	.
.	.	12e-/	.	.	.	.	.	.	.	.	.	.	.	.	.	.
.	.	12g/	.	.	.	.	.	.	.	.	.	.	.	.	.	.
.	.	12b-/J	.	.	.	.	.	.	.	.	.	.	.	.	.	.
!	!LO:N:xstem	!LO:TUP:b	!	!	!	!	!	!	!	!	!	!	!	!	!	!
4E-/	2EE-\]	12b-/L	.	.	.	.	.	.	.	.	.	.	.	4b-\	-bre	.
.	.	12g/	.	.	.	.	.	.	.	.	.	.	.	.	.	.
.	.	12e-/	.	.	.	.	.	.	.	.	.	.	.	.	.	.
4D/	.	12f/	.	.	.	.	.	.	.	.	.	.	.	4a-\	pa-	.
.	.	12B-/	.	.	.	.	.	.	.	.	.	.	.	.	.	.
.	.	12f/J	.	.	.	.	.	.	.	.	.	.	.	.	.	.
*v	*v	*	*	*	*	*	*	*	*	*	*	*	*	*	*	*
=71	=71	=71	=71	=71	=71	=71	=71	=71	=71	=71	=71	=71	=71	=71	=71
!	!LO:TUP:b	!	!	!	!	!	!	!	!	!	!	!	!	!	!
2EE-/) 2E-	12e-/L	.	.	1ryy	.	.	1ryy	.	.	1ryy	.	.	2g/	-tri-	.
.	12B-/	.	.	.	.	.	.	.	.	.	.	.	.	.	.
.	12e-/	.	.	.	.	.	.	.	.	.	.	.	.	.	.
.	12g/	.	<	.	.	.	.	.	.	.	.	.	.	.	.
.	12e-/	.	.	.	.	.	.	.	.	.	.	.	.	.	.
.	12g/J	.	.	.	.	.	.	.	.	.	.	.	.	.	.
!	!LO:TUP:a	!	!	!	!	!	!	!	!	!	!	!	!	!	!LO:HP:a
4EE-/ 4E-	12b-\L	.	.	.	.	.	.	.	.	.	.	.	4g/	-e	<
.	12g\	.	.	.	.	.	.	.	.	.	.	.	.	.	.
.	12b-\	.	.	.	.	.	.	.	.	.	.	.	.	.	.
8BB-/L	12ee-\	.	.	.	.	.	.	.	.	.	.	.	8b-\	dans	.
.	12b-\	.	.	.	.	.	.	.	.	.	.	.	.	.	.
8GG/J	.	.	.	.	.	.	.	.	.	.	.	.	8ee-\	sa	[
.	12ee-\J	.	[	.	.	.	.	.	.	.	.	.	.	.	.
=72	=72	=72	=72	=72	=72	=72	=72	=72	=72	=72	=72	=72	=72	=72	=72
4EE-/	8gg^>\L	.	.	1ryy	.	.	1ryy	.	.	1ryy	.	.	(8gg\L	li-	.
.	8ee-^>\	.	.	.	.	.	.	.	.	.	.	.	8ee-\	.	.
4E-\ 4e-	8b-^>\	.	.	.	.	.	.	.	.	.	.	.	8b-\	.	.
.	8g^>\J	.	.	.	.	.	.	.	.	.	.	.	8g\J)	.	.
4BBB-/ 4BB-	4f/	.	.	.	.	.	.	.	.	.	.	.	4f/	-bre	.
4BBB-/ 4BB-	4d/ 4f 4b-	.	.	.	.	.	.	.	.	.	.	.	4b-/	pa-	.
=73	=73	=73	=73	=73	=73	=73	=73	=73	=73	=73	=73	=73	=73	=73	=73
4EE-/ 4E-	(>16g/LL	.	sf <	1ryy	.	.	1ryy	.	.	1ryy	.	.	2e-/	-tri-	.
.	16e-/	.	.	.	.	.	.	.	.	.	.	.	.	.	.
.	16f/	.	.	.	.	.	.	.	.	.	.	.	.	.	.
.	16g/JJ	.	.	.	.	.	.	.	.	.	.	.	.	.	.
4BB-/	16a-\LL	.	.	.	.	.	.	.	.	.	.	.	.	.	.
.	16b-\	.	.	.	.	.	.	.	.	.	.	.	.	.	.
.	16cc\	.	.	.	.	.	.	.	.	.	.	.	.	.	.
.	16dd\JJ	.	.	.	.	.	.	.	.	.	.	.	.	.	.
.	.	.	.	.	.	.	.	.	.	.	.	.	(<32qqg/LLL	.	.
.	.	.	.	.	.	.	.	.	.	.	.	.	32qqf/JJJ	.	.
4EE-/	4ee-\)	.	[ f	.	.	.	.	.	.	.	.	.	4e-/)	-e	.
4r	8gg\L	.	.	.	.	.	.	.	.	.	.	.	4r	.	.
.	8ee-\J	.	.	.	.	.	.	.	.	.	.	.	.	.	.
!!LO:PB:g=original
=74	=74	=74	=74	=74	=74	=74	=74	=74	=74	=74	=74	=74	=74	=74	=74
2.BB-\ 2.B-	8dd\L	.	f	1ryy	.	.	1ryy	.	.	1ryy	.	.	1r	.	.
!	!	!	!LO:HP:t=cres.	!	!	!	!	!	!	!	!	!	!	!	!
.	16cc\L	.	<	.	.	.	.	.	.	.	.	.	.	.	.
.	16ee-\JJ	.	.	.	.	.	.	.	.	.	.	.	.	.	.
.	16dd\LL	.	.	.	.	.	.	.	.	.	.	.	.	.	.
.	16ff\	.	.	.	.	.	.	.	.	.	.	.	.	.	.
.	16ee-\	.	.	.	.	.	.	.	.	.	.	.	.	.	.
.	16gg\JJ	.	.	.	.	.	.	.	.	.	.	.	.	.	.
.	16ff\LL	.	.	.	.	.	.	.	.	.	.	.	.	.	.
.	16aa-\	.	.	.	.	.	.	.	.	.	.	.	.	.	.
.	16gg\	.	.	.	.	.	.	.	.	.	.	.	.	.	.
.	16bb-\JJ	.	.	.	.	.	.	.	.	.	.	.	.	.	.
4BB-\ 4B-	16aa-\LL	.	.	.	.	.	.	.	.	.	.	.	.	.	.
.	16ccc\	.	.	.	.	.	.	.	.	.	.	.	.	.	.
.	16ff\	.	.	.	.	.	.	.	.	.	.	.	.	.	.
.	16ddd\JJ	.	.	.	.	.	.	.	.	.	.	.	.	.	.
=75	=75	=75	=75	=75	=75	=75	=75	=75	=75	=75	=75	=75	=75	=75	=75
.	(<8qgg/	.	.	.	.	.	.	.	.	.	.	.	.	.	.
4EE-/ 4E-	(>16fff\LL)	.	f	1ryy	.	.	1ryy	.	.	1ryy	.	.	1r	.	.
.	16eee-\	.	.	.	.	.	.	.	.	.	.	.	.	.	.
.	16ddd\	.	.	.	.	.	.	.	.	.	.	.	.	.	.
.	16eee-\JJ	.	.	.	.	.	.	.	.	.	.	.	.	.	.
4E-\ 4B-	16fff\LL	.	.	.	.	.	.	.	.	.	.	.	.	.	.
.	16eee-\	.	.	.	.	.	.	.	.	.	.	.	.	.	.
.	16bb-\	.	.	.	.	.	.	.	.	.	.	.	.	.	.
.	16gg\JJ)	.	.	.	.	.	.	.	.	.	.	.	.	.	.
.	(<8qff/	.	.	.	.	.	.	.	.	.	.	.	.	.	.
4AA-^\ 4A-	(>16ddd\LL)	.	.	.	.	.	.	.	.	.	.	.	.	.	.
.	16ccc\	.	.	.	.	.	.	.	.	.	.	.	.	.	.
.	16bbn\	.	.	.	.	.	.	.	.	.	.	.	.	.	.
.	16ccc\JJ	.	.	.	.	.	.	.	.	.	.	.	.	.	.
4A-\ 4c	16ddd\LL	.	.	.	.	.	.	.	.	.	.	.	.	.	.
.	16ccc\	.	.	.	.	.	.	.	.	.	.	.	.	.	.
.	16aa-\	.	.	.	.	.	.	.	.	.	.	.	.	.	.
.	16ff\JJ)	.	.	.	.	.	.	.	.	.	.	.	.	.	.
=76	=76	=76	=76	=76	=76	=76	=76	=76	=76	=76	=76	=76	=76	=76	=76
4BB-^\ 4A-	(>16ccc\LL	.	.	1ryy	.	.	1ryy	.	.	1ryy	.	.	1r	.	.
.	16bb-X\	.	.	.	.	.	.	.	.	.	.	.	.	.	.
.	16aan\	.	.	.	.	.	.	.	.	.	.	.	.	.	.
.	16bb-\JJ	.	.	.	.	.	.	.	.	.	.	.	.	.	.
4B-\ 4g	16ccc\LL	.	.	.	.	.	.	.	.	.	.	.	.	.	.
.	16bb-\	.	.	.	.	.	.	.	.	.	.	.	.	.	.
.	16gg\	.	.	.	.	.	.	.	.	.	.	.	.	.	.
.	16ee-\JJ)	.	.	.	.	.	.	.	.	.	.	.	.	.	.
4BB-/	8dd\L	.	.	.	.	.	.	.	.	.	.	.	.	.	.
.	8b-\	.	.	.	.	.	.	.	.	.	.	.	.	.	.
4r	8cc\	.	.	.	.	.	.	.	.	.	.	.	.	.	.
.	8dd\J	.	.	.	.	.	.	.	.	.	.	.	.	.	.
!!LO:LB:g=original
=77||	=77||	=77||	=77||	=77||	=77||	=77||	=77||	=77||	=77||	=77||	=77||	=77||	=77||	=77||	=77||
*ped	*	*	*	*	*	*	*	*	*	*	*	*	*	*	*
!	!LO:TX:a:t=All°. risoluto.	!	!	!	!	!	!	!	!	!	!	!	!LO:TX:a:t=All°. risoluto.	!	!
4EE-/ 4E-	[2ee-\	.	f	1ryy	.	.	1ryy	.	.	1ryy	.	.	1r	.	.
!LO:TX:a:i:t=marcato.	!	!	!	!	!	!	!	!	!	!	!	!	!	!	!
8.G\L 8.B- 8.e-	.	.	.	.	.	.	.	.	.	.	.	.	.	.	.
16G\Jk 16B- 16e-	.	.	.	.	.	.	.	.	.	.	.	.	.	.	.
4G\ 4B- 4e-	8.ee-\L]	.	.	.	.	.	.	.	.	.	.	.	.	.	.
.	16ee-\K	.	.	.	.	.	.	.	.	.	.	.	.	.	.
4E-^\	8.ff\	.	.	.	.	.	.	.	.	.	.	.	.	.	.
.	16gg\Jk	.	.	.	.	.	.	.	.	.	.	.	.	.	.
=78	=78	=78	=78	=78	=78	=78	=78	=78	=78	=78	=78	=78	=78	=78	=78
4EE-/ 4E-	[2b-^\	.	.	1ryy	.	.	1ryy	.	.	1ryy	.	.	1r	.	.
8.G\L 8.B- 8.e-	.	.	.	.	.	.	.	.	.	.	.	.	.	.	.
16G\Jk 16B- 16e-	.	.	.	.	.	.	.	.	.	.	.	.	.	.	.
4G\ 4B- 4e-	8.b-\L]	.	.	.	.	.	.	.	.	.	.	.	.	.	.
.	16cc\K	.	.	.	.	.	.	.	.	.	.	.	.	.	.
4E-^\	8.dd\	.	.	.	.	.	.	.	.	.	.	.	.	.	.
*Xped	*	*	*	*	*	*	*	*	*	*	*	*	*	*	*
.	16ee-\Jk	.	.	.	.	.	.	.	.	.	.	.	.	.	.
=79	=79	=79	=79	=79	=79	=79	=79	=79	=79	=79	=79	=79	=79	=79	=79
4BB-/	4dd^\	.	.	1ryy	.	.	1ryy	.	.	1ryy	.	.	1r	.	.
4F\ 4A- 4B-	8.cc\L	.	.	.	.	.	.	.	.	.	.	.	.	.	.
.	16dd\Jk	.	.	.	.	.	.	.	.	.	.	.	.	.	.
8.E-\L	8.ee-\L	.	.	.	.	.	.	.	.	.	.	.	.	.	.
16G\K	16g\K 16b-	.	.	.	.	.	.	.	.	.	.	.	.	.	.
8.A-\	8.f\ 8.a-	.	.	.	.	.	.	.	.	.	.	.	.	.	.
16An\Jk	16e-\Jk 16g	.	.	.	.	.	.	.	.	.	.	.	.	.	.
=80	=80	=80	=80	=80	=80	=80	=80	=80	=80	=80	=80	=80	=80	=80	=80
4B-\	4d/ 4f	.	.	1ryy	.	.	1ryy	.	.	1ryy	.	.	2r	.	.
4BB-\ 4B-	4d/ 4b-	.	.	.	.	.	.	.	.	.	.	.	.	.	.
2r	2r	.	.	.	.	.	.	.	.	.	.	.	4r	.	.
!	!	!	!	!	!	!	!	!	!	!	!	!	!	!	!LO:DY:a
.	.	.	.	.	.	.	.	.	.	.	.	.	4b-\	Des	f
=81	=81	=81	=81	=81	=81	=81	=81	=81	=81	=81	=81	=81	=81	=81	=81
4EE-/ 4E-	4G/ 4B- 4e- 4g	.	mf	1ryy	.	.	1ryy	.	.	1ryy	.	.	[2ee-\	bouts	.
8.EE-/L 8.E-	8.G/L 8.B- 8.e- 8.g	.	.	.	.	.	.	.	.	.	.	.	.	.	.
16EE-/Jk 16E-	16G/Jk 16B- 16e- 16g	.	.	.	.	.	.	.	.	.	.	.	.	.	.
4EE-/ 4E-	4G/ 4B- 4e- 4g	.	.	.	.	.	.	.	.	.	.	.	8.ee-\]	.	.
.	.	.	.	.	.	.	.	.	.	.	.	.	16ee-\	de	.
4EE-/ 4E-	4G/ 4B- 4e- 4g	.	.	.	.	.	.	.	.	.	.	.	8.ff\	l'u-	.
.	.	.	.	.	.	.	.	.	.	.	.	.	16gg\	-ni-	.
!!LO:LB:g=original
=82	=82	=82	=82	=82	=82	=82	=82	=82	=82	=82	=82	=82	=82	=82	=82
4EE-/ 4E-	4G/ 4B- 4e- 4g	.	.	1ryy	.	.	1ryy	.	.	1ryy	.	.	2.b-\	-vers	.
8.EE-/L 8.E-	8.G/L 8.B- 8.e- 8.g	.	.	.	.	.	.	.	.	.	.	.	.	.	.
16EE-/Jk 16E-	16G/Jk 16B- 16e- 16g	.	.	.	.	.	.	.	.	.	.	.	.	.	.
4EE-/ 4E-	4G/ 4B- 4e- 4g	.	.	.	.	.	.	.	.	.	.	.	.	.	.
.	.	.	.	.	.	.	.	.	.	.	.	.	(<8qee-/	.	.
4EE-/ 4E-	4G/ 4B- 4e- 4g	.	.	.	.	.	.	.	.	.	.	.	(8dd\L)	les	.
.	.	.	.	.	.	.	.	.	.	.	.	.	8cc\J)	.	.
=83	=83	=83	=83	=83	=83	=83	=83	=83	=83	=83	=83	=83	=83	=83	=83
4EE-/ 4E-	4G/ 4B- 4e- 4g	.	.	1ryy	.	.	1ryy	.	.	1ryy	.	.	[2b-\	voeux	.
8.EE-/L 8.E-	8.G/L 8.B- 8.e- 8.g	.	.	.	.	.	.	.	.	.	.	.	.	.	.
16EE-/Jk 16E-	16G/Jk 16B- 16e- 16g	.	.	.	.	.	.	.	.	.	.	.	.	.	.
4EE-/ 4E-	4G/ 4B- 4e- 4g	.	<	.	.	.	.	.	.	.	.	.	8.b-\]	.	.
.	.	.	.	.	.	.	.	.	.	.	.	.	16cc\	les	.
4EE-/ 4E-	4G/ 4B- 4e- 4g	.	[[	.	.	.	.	.	.	.	.	.	8.dd\	plus	.
.	.	.	.	.	.	.	.	.	.	.	.	.	16ee-\	tou-	.
=84	=84	=84	=84	=84	=84	=84	=84	=84	=84	=84	=84	=84	=84	=84	=84
4BBB-/ 4BB-	4A-/ 4B- 4d 4f	.	sf	1ryy	.	.	1ryy	.	.	1ryy	.	.	2ff^>\	-chants	.
8.BBB-/L 8.BB-	8.A-/L 8.B- 8.d 8.f	.	.	.	.	.	.	.	.	.	.	.	.	.	.
16BBB-/Jk 16BB-	16A-/Jk 16B- 16d 16f	.	.	.	.	.	.	.	.	.	.	.	.	.	.
4BBB-/ 4BB-	4A-/ 4B- 4d 4f	.	.	.	.	.	.	.	.	.	.	.	4r	.	.
4BBB-/ 4BB-	4A-/ 4B- 4d 4f	.	.	.	.	.	.	.	.	.	.	.	8b-\	à	.
.	.	.	.	.	.	.	.	.	.	.	.	.	8b-\	l'é-	.
=85	=85	=85	=85	=85	=85	=85	=85	=85	=85	=85	=85	=85	=85	=85	=85
4EE-/ 4E-	4G/ 4B- 4e-	.	.	1ryy	.	.	1ryy	.	.	1ryy	.	.	2ee-\	-gli-	.
8.EE-/L 8.E-	8.G/L 8.B- 8.e- 8.g	.	.	.	.	.	.	.	.	.	.	.	.	.	.
16EE-/Jk 16E-	16G/Jk 16B- 16e- 16g	.	.	.	.	.	.	.	.	.	.	.	.	.	.
4EE-/ 4E-	8G/L 8B- 8e- 8g	.	.	.	.	.	.	.	.	.	.	.	4ee-\	-se	.
.	8ee-/J	.	.	.	.	.	.	.	.	.	.	.	.	.	.
8BB-/L	8ff\L	.	.	.	.	.	.	.	.	.	.	.	(8ff\L	ren-	.
8GG/J	8gg\J	.	.	.	.	.	.	.	.	.	.	.	8gg\J)	.	.
=86	=86	=86	=86	=86	=86	=86	=86	=86	=86	=86	=86	=86	=86	=86	=86
4EE-/ 4E-	2.ee-\	.	.	1ryy	.	.	1ryy	.	.	1ryy	.	.	2.ee-\	-dront	.
8.E-\L 8.G 8.B- 8.e-	.	.	.	.	.	.	.	.	.	.	.	.	.	.	.
16E-\Jk 16G 16B- 16e-	.	.	.	.	.	.	.	.	.	.	.	.	.	.	.
4E-\ 4G 4B- 4e-	.	.	.	.	.	.	.	.	.	.	.	.	.	.	.
4E-\ 4G 4B- 4e-	8dd\L	.	.	.	.	.	.	.	.	.	.	.	8dd\L	la	.
.	8cc\J	.	.	.	.	.	.	.	.	.	.	.	8cc\J	.	.
!!LO:LB:g=original
=87	=87	=87	=87	=87	=87	=87	=87	=87	=87	=87	=87	=87	=87	=87	=87
*	*^	*	*	*	*	*	*	*	*	*	*	*	*	*	*
4GG/ 4G	8.gg/L	2bn\	.	f	1ryy	.	.	1ryy	.	.	1ryy	.	.	2bn\	gloi-	.
.	16dd/K	.	.	.	.	.	.	.	.	.	.	.	.	.	.	.
4G\ 4d 4f	8.cc/	.	.	.	.	.	.	.	.	.	.	.	.	.	.	.
.	16b/Jk	.	.	.	.	.	.	.	.	.	.	.	.	.	.	.
.	(<8qcc/	.	.	.	.	.	.	.	.	.	.	.	.	.	.	.
4CC/ 4C	8.gg/L)	2ryy	.	.	.	.	.	.	.	.	.	.	.	4cc\	-re et	.
.	16cc/K	.	.	.	.	.	.	.	.	.	.	.	.	.	.	.
4G\ 4c 4e-	8.b-X/	.	.	.	.	.	.	.	.	.	.	.	.	8dd\	l'al-	.
.	.	.	.	.	.	.	.	.	.	.	.	.	.	8cc\	-lé-	.
.	16a-/Jk	.	.	.	.	.	.	.	.	.	.	.	.	.	.	.
*	*v	*v	*	*	*	*	*	*	*	*	*	*	*	*	*	*
=88	=88	=88	=88	=88	=88	=88	=88	=88	=88	=88	=88	=88	=88	=88	=88
*ped	*	*	*	*	*	*	*	*	*	*	*	*	*	*	*
4GG\ 4G	8g\L	.	.	1ryy	.	.	1ryy	.	.	1ryy	.	.	2bn\	-gres-	.
.	16g\L 16gg	.	.	.	.	.	.	.	.	.	.	.	.	.	.
.	16g\JJ 16gg	.	.	.	.	.	.	.	.	.	.	.	.	.	.
!	!	!	!LO:DY:b=2	!	!	!	!	!	!	!	!	!	!	!	!
4G\ 4Bn 4d	8g\L 8gg	.	sf	.	.	.	.	.	.	.	.	.	.	.	.
.	8g\J 8gg	.	.	.	.	.	.	.	.	.	.	.	.	.	.
2r	8g\L 8gg	.	.	.	.	.	.	.	.	.	.	.	4g/	-se	.
.	8g\ 8gg	.	.	.	.	.	.	.	.	.	.	.	.	.	.
.	8f\ 8ff	.	.	.	.	.	.	.	.	.	.	.	4r	.	.
.	8e-\J 8ee-	.	.	.	.	.	.	.	.	.	.	.	.	.	.
=89	=89	=89	=89	=89	=89	=89	=89	=89	=89	=89	=89	=89	=89	=89	=89
4BBB-/	8d/ 8dd	.	mf	1ryy	.	.	1ryy	.	.	1ryy	.	.	2dd\	Dieu	.
.	16d/LL	.	.	.	.	.	.	.	.	.	.	.	.	.	.
.	16B-/JJ	.	.	.	.	.	.	.	.	.	.	.	.	.	.
2BB-/	16A-/LL	.	.	.	.	.	.	.	.	.	.	.	.	.	.
.	16B-/	.	.	.	.	.	.	.	.	.	.	.	.	.	.
.	16d/	.	.	.	.	.	.	.	.	.	.	.	.	.	.
.	16f/JJ	.	.	.	.	.	.	.	.	.	.	.	.	.	.
.	16d/LL	.	.	.	.	.	.	.	.	.	.	.	8dd\	fe-	.
.	16B-/	.	.	.	.	.	.	.	.	.	.	.	.	.	.
.	16c/	.	.	.	.	.	.	.	.	.	.	.	8ff\	-ra	.
.	16B-/JJ	.	.	.	.	.	.	.	.	.	.	.	.	.	.
4BB-/	16A-/LL	.	.	.	.	.	.	.	.	.	.	.	8b-X\	tri-	.
.	16B-/	.	.	.	.	.	.	.	.	.	.	.	.	.	.
.	16d/	.	.	.	.	.	.	.	.	.	.	.	8a-\	-om-	.
.	16f/JJ	.	.	.	.	.	.	.	.	.	.	.	.	.	.
=90	=90	=90	=90	=90	=90	=90	=90	=90	=90	=90	=90	=90	=90	=90	=90
4EE-/	16e-/LL	.	.	1ryy	.	.	1ryy	.	.	1ryy	.	.	(<4.g/	-pher-	.
.	16g/	.	.	.	.	.	.	.	.	.	.	.	.	.	.
.	16e-/	.	.	.	.	.	.	.	.	.	.	.	.	.	.
.	16B-/JJ	.	.	.	.	.	.	.	.	.	.	.	.	.	.
2BB-/	16G/LL	.	.	.	.	.	.	.	.	.	.	.	.	.	.
.	16B-/	.	.	.	.	.	.	.	.	.	.	.	.	.	.
.	16e-/	.	.	.	.	.	.	.	.	.	.	.	8a-/	.	.
.	16g/JJ	.	.	.	.	.	.	.	.	.	.	.	.	.	.
.	16e-/LL	.	.	.	.	.	.	.	.	.	.	.	4b-/)	.	.
.	16g/	.	.	.	.	.	.	.	.	.	.	.	.	.	.
.	16e-/	.	.	.	.	.	.	.	.	.	.	.	.	.	.
.	16B-/JJ	.	.	.	.	.	.	.	.	.	.	.	.	.	.
4BB-/	16G/LL	.	.	.	.	.	.	.	.	.	.	.	8.b-\	-ton	.
.	16B-/	.	.	.	.	.	.	.	.	.	.	.	.	.	.
.	16e-/	.	.	.	.	.	.	.	.	.	.	.	.	.	.
.	16g/JJ	.	.	.	.	.	.	.	.	.	.	.	16ee-\	au-	.
!!LO:PB:g=original
=91	=91	=91	=91	=91	=91	=91	=91	=91	=91	=91	=91	=91	=91	=91	=91
4BBB-/	16d/LL	.	.	1ryy	.	.	1ryy	.	.	1ryy	.	.	[2dd\	-gus-	.
.	16f/	.	.	.	.	.	.	.	.	.	.	.	.	.	.
.	16d/	.	.	.	.	.	.	.	.	.	.	.	.	.	.
.	16B-/JJ	.	.	.	.	.	.	.	.	.	.	.	.	.	.
2BB-^>/	16A-/LL	.	.	.	.	.	.	.	.	.	.	.	.	.	.
.	16B-/	.	.	.	.	.	.	.	.	.	.	.	.	.	.
.	16d/	.	.	.	.	.	.	.	.	.	.	.	.	.	.
.	16f/JJ	.	.	.	.	.	.	.	.	.	.	.	.	.	.
.	16d/LL	.	.	.	.	.	.	.	.	.	.	.	8dd\]	.	.
.	16B-/	.	.	.	.	.	.	.	.	.	.	.	.	.	.
.	16d/	.	.	.	.	.	.	.	.	.	.	.	8ff\	-te	.
.	16B-/JJ	.	.	.	.	.	.	.	.	.	.	.	.	.	.
4BB-/	16A-/LL	.	.	.	.	.	.	.	.	.	.	.	8cc\	vi-	.
.	16B-/	.	.	.	.	.	.	.	.	.	.	.	.	.	.
.	16d/	.	.	.	.	.	.	.	.	.	.	.	8dd\	-eil-	.
.	16f/JJ	.	.	.	.	.	.	.	.	.	.	.	.	.	.
=92	=92	=92	=92	=92	=92	=92	=92	=92	=92	=92	=92	=92	=92	=92	=92
4EE-/ 4E-	16e-/LL	.	.	1ryy	.	.	1ryy	.	.	1ryy	.	.	2b-\	-les-	.
.	16g/	.	.	.	.	.	.	.	.	.	.	.	.	.	.
.	16f/	.	.	.	.	.	.	.	.	.	.	.	.	.	.
.	16e-/JJ	.	.	.	.	.	.	.	.	.	.	.	.	.	.
4r	16d/LL	.	.	.	.	.	.	.	.	.	.	.	.	.	.
.	16c/	.	.	.	.	.	.	.	.	.	.	.	.	.	.
.	16d/	.	.	.	.	.	.	.	.	.	.	.	.	.	.
.	16e-/JJ	.	.	.	.	.	.	.	.	.	.	.	.	.	.
2r	16f\LL	.	.	.	.	.	.	.	.	.	.	.	4g\	-se	.
.	16g\	.	.	.	.	.	.	.	.	.	.	.	.	.	.
.	16a-\	.	.	.	.	.	.	.	.	.	.	.	.	.	.
.	16b-\JJ	.	.	.	.	.	.	.	.	.	.	.	.	.	.
.	16cc\LL	.	.	.	.	.	.	.	.	.	.	.	4r	.	.
.	16dd\	.	.	.	.	.	.	.	.	.	.	.	.	.	.
.	16ee-\	.	.	.	.	.	.	.	.	.	.	.	.	.	.
.	16ff\JJ	.	.	.	.	.	.	.	.	.	.	.	.	.	.
=93	=93	=93	=93	=93	=93	=93	=93	=93	=93	=93	=93	=93	=93	=93	=93
!	!	!	!	!	!	!	!	!	!	!	!	!	!	!	!LO:DY:a
4EE-/ 4E-	4gg\	.	f	1ryy	.	.	1ryy	.	.	1ryy	.	.	4gg\	bien	f
4GG/ 4G	8.g\L 8.bn 8.ff	.	.	.	.	.	.	.	.	.	.	.	8.ff\	au	.
.	16g\Jk 16b 16ff	.	.	.	.	.	.	.	.	.	.	.	16ff\	de	.
4C\ 4c	4g\ 4cc 4ee-	.	.	.	.	.	.	.	.	.	.	.	4ee-\	la	.
4GG^>\ 4G	4g\ 4b-X 4dd	.	.	.	.	.	.	.	.	.	.	.	4dd\	du	.
!!LO:LB:g=original
=94	=94	=94	=94	=94	=94	=94	=94	=94	=94	=94	=94	=94	=94	=94	=94
4AA-\ 4A-	4e-/ 4a- 4cc	.	.	1ryy	.	.	1ryy	.	.	1ryy	.	.	4cc\	ré-	.
4EEn/ 4En	8.c/L 8.g 8.b-X	.	.	.	.	.	.	.	.	.	.	.	4b-\	-gne	.
.	16c/Jk 16g 16b-	.	.	.	.	.	.	.	.	.	.	.	.	.	.
4FF/ 4F	4f/ 4a-	.	.	.	.	.	.	.	.	.	.	.	4a-\	des	.
4EE-X/ 4E-X	4c/ 4g 4b-	.	.	.	.	.	.	.	.	.	.	.	4b-\	me-	.
=95	=95	=95	=95	=95	=95	=95	=95	=95	=95	=95	=95	=95	=95	=95	=95
4FF/ 4F	4f/ 4a-	.	.	1ryy	.	.	1ryy	.	.	1ryy	.	.	4a-\	-chants	.
2AA-\ 2A-	2c-X/ 2f-X 2cc-X	.	.	.	.	.	.	.	.	.	.	.	2cc-X\	ré-	.
4AAA-/ 4AA-	4c-/ 4cc-	.	.	.	.	.	.	.	.	.	.	.	4a-\	-gne	.
=96	=96	=96	=96	=96	=96	=96	=96	=96	=96	=96	=96	=96	=96	=96	=96
4BBB-/ 4BB-	8B-/L 8e- 8g 8b-	.	.	1ryy	.	.	1ryy	.	.	1ryy	.	.	4b-\	des	.
.	16B-/L 16b-	.	<	.	.	.	.	.	.	.	.	.	.	.	.
.	16B-/JJ 16b-	.	.	.	.	.	.	.	.	.	.	.	.	.	.
4BB-\ 4B-	8B-/L 8b-	.	.	.	.	.	.	.	.	.	.	.	4r	.	.
.	8B-/J 8b-	.	.	.	.	.	.	.	.	.	.	.	.	.	.
2r	8B-/L 8b-	.	.	.	.	.	.	.	.	.	.	.	2b-\	mé-	.
.	8B-/ 8b-	.	.	.	.	.	.	.	.	.	.	.	.	.	.
.	8B-/ 8b-	.	.	.	.	.	.	.	.	.	.	.	.	.	.
.	8B-/J 8b-	.	[	.	.	.	.	.	.	.	.	.	.	.	.
=97	=97	=97	=97	=97	=97	=97	=97	=97	=97	=97	=97	=97	=97	=97	=97
*ped	*	*	*	*	*	*	*	*	*	*	*	*	*	*	*
4BBB-/ 4BB-	8B-/L 8d 8f 8b-	.	.	1ryy	.	.	1ryy	.	.	1ryy	.	.	4b-\	-chants	.
.	16B-/L 16b-	.	.	.	.	.	.	.	.	.	.	.	.	.	.
.	16B-/JJ 16b-	.	.	.	.	.	.	.	.	.	.	.	.	.	.
4r	8B-/L 8b-	.	.	.	.	.	.	.	.	.	.	.	4r	.	.
.	8B-/J 8b-	.	.	.	.	.	.	.	.	.	.	.	.	.	.
!	!	!	!	!	!	!	!	!	!	!	!	!	!	!	!LO:DY:a
2BB-^\ 2F 2A-	8B-/L 8b-	.	.	.	.	.	.	.	.	.	.	.	8r	.	f
.	8B-/ 8b-	.	.	.	.	.	.	.	.	.	.	.	(8b-\L	Pro-	.
.	8c/ 8cc	.	.	.	.	.	.	.	.	.	.	.	8cc\J)	.	.
*Xped	*	*	*	*	*	*	*	*	*	*	*	*	*	*	*
.	8d/J 8dd	.	.	.	.	.	.	.	.	.	.	.	8dd\	-cla-	.
=98	=98	=98	=98	=98	=98	=98	=98	=98	=98	=98	=98	=98	=98	=98	=98
4EE-/ 4E-	12ee-\L	.	.	1ryy	.	.	1ryy	.	.	1ryy	.	.	2ee-\	-mons	.
.	12e-\	.	.	.	.	.	.	.	.	.	.	.	.	.	.
.	12g\J	.	.	.	.	.	.	.	.	.	.	.	.	.	.
4E-\ 4G	12b-\L	.	.	.	.	.	.	.	.	.	.	.	.	.	.
.	12g\	.	.	.	.	.	.	.	.	.	.	.	.	.	.
.	12b-\J	.	.	.	.	.	.	.	.	.	.	.	.	.	.
4EE-/ 4E-	8.ee-\L	.	.	.	.	.	.	.	.	.	.	.	4r	.	.
.	16e-\Jk 16ee-	.	.	.	.	.	.	.	.	.	.	.	.	.	.
4r	8.f\L 8.ff	.	.	.	.	.	.	.	.	.	.	.	8.ff\	pro-	.
.	16g\Jk 16gg	.	.	.	.	.	.	.	.	.	.	.	16gg\	-cla-	.
!!LO:LB:g=original
=99	=99	=99	=99	=99	=99	=99	=99	=99	=99	=99	=99	=99	=99	=99	=99
4EE-/ 4E-	12ee-\L	.	.	1ryy	.	.	1ryy	.	.	1ryy	.	.	[2ee-\	-mons	.
.	12e-\	.	.	.	.	.	.	.	.	.	.	.	.	.	.
.	12g\J	.	.	.	.	.	.	.	.	.	.	.	.	.	.
4E-\ 4G	12b-\L	.	.	.	.	.	.	.	.	.	.	.	.	.	.
.	12g\	.	.	.	.	.	.	.	.	.	.	.	.	.	.
.	12b-\J	.	.	.	.	.	.	.	.	.	.	.	.	.	.
4EE-/ 4E-	8.ee-\L	.	.	.	.	.	.	.	.	.	.	.	4ee-\]	.	.
.	16e-\K 16ee-	.	.	.	.	.	.	.	.	.	.	.	.	.	.
4r	8.d\ 8.dd	.	.	.	.	.	.	.	.	.	.	.	8.dd\	cha-	.
.	16c\Jk 16cc	.	.	.	.	.	.	.	.	.	.	.	16cc\	-que	.
=100	=100	=100	=100	=100	=100	=100	=100	=100	=100	=100	=100	=100	=100	=100	=100
4EE-/ 4E-	4B-/ 4b-	.	.	1ryy	.	.	1ryy	.	.	1ryy	.	.	4.b-\	mot	.
4E-\ 4G	8.B-/L 8.b-	.	.	.	.	.	.	.	.	.	.	.	.	.	.
!	!	!	!	!	!	!	!	!	!	!	!	!	!	!	!LO:HP:a
.	.	.	.	.	.	.	.	.	.	.	.	.	8b-\	de	<
.	16B-/Jk 16b-	.	.	.	.	.	.	.	.	.	.	.	.	.	.
4EE-/ 4E-	8.B-/L 8.b-	.	<	.	.	.	.	.	.	.	.	.	8.b-\	ton	.
.	16c/K 16cc	.	.	.	.	.	.	.	.	.	.	.	16cc\	no-	.
4r	8.d/ 8.dd	.	.	.	.	.	.	.	.	.	.	.	8.dd\	-ble	.
.	16e-/Jk 16ee-	.	[	.	.	.	.	.	.	.	.	.	16ee-\	lan-	[[
=101	=101	=101	=101	=101	=101	=101	=101	=101	=101	=101	=101	=101	=101	=101	=101
*ped	*	*	*	*	*	*	*	*	*	*	*	*	*	*	*
4BBB-/ 4BB-	8f/L 8ff	.	f	1ryy	.	.	1ryy	.	.	1ryy	.	.	2ff^\	-ga-	.
.	16B-/L 16b-	.	.	.	.	.	.	.	.	.	.	.	.	.	.
.	16B-/JJ 16b-	.	.	.	.	.	.	.	.	.	.	.	.	.	.
4BB-\ 4F	8B-/L 8b-	.	.	.	.	.	.	.	.	.	.	.	.	.	.
.	8B-/J 8b-	.	.	.	.	.	.	.	.	.	.	.	.	.	.
2r	8B-/L 8b-	.	.	.	.	.	.	.	.	.	.	.	4b-\	-ge	.
.	8B-/ 8b-	.	.	.	.	.	.	.	.	.	.	.	.	.	.
.	8B-/ 8b-	.	.	.	.	.	.	.	.	.	.	.	4r	.	.
*Xped	*	*	*	*	*	*	*	*	*	*	*	*	*	*	*
.	8B-/J 8b-	.	.	.	.	.	.	.	.	.	.	.	.	.	.
=102	=102	=102	=102	=102	=102	=102	=102	=102	=102	=102	=102	=102	=102	=102	=102
!	!	!	!	!	!	!	!	!	!	!	!	!	!	!	!LO:DY:a
4EE-/ 4E-	2e-\ 2ee-	.	f	1ryy	.	.	1ryy	.	.	1ryy	.	.	2ee-\	Vous	f
8.E-\L 8.G 8.B- 8.e-	.	.	.	.	.	.	.	.	.	.	.	.	.	.	.
16E-\Jk 16G 16B- 16e-	.	.	.	.	.	.	.	.	.	.	.	.	.	.	.
4E-\ 4G 4B- 4e-	8.e-\L 8.ee-	.	.	.	.	.	.	.	.	.	.	.	8.ee-\	mes-	.
.	16e-\K 16ee-	.	.	.	.	.	.	.	.	.	.	.	16ee-\	-chers	.
4E-\	8.f\ 8.ff	.	.	.	.	.	.	.	.	.	.	.	8.ff\	Po-	.
.	16g\Jk 16gg	.	.	.	.	.	.	.	.	.	.	.	16gg\	-lo-	.
=103	=103	=103	=103	=103	=103	=103	=103	=103	=103	=103	=103	=103	=103	=103	=103
4EE-/	2e-\ 2ee-	.	.	1ryy	.	.	1ryy	.	.	1ryy	.	.	2.ee-\	-nais	.
8.E-\L 8.G 8.B- 8.e-	.	.	.	.	.	.	.	.	.	.	.	.	.	.	.
16E-\Jk 16G 16B- 16e-	.	.	.	.	.	.	.	.	.	.	.	.	.	.	.
4E-\ 4G 4B- 4e-	8.e-\L 8.ee-	.	.	.	.	.	.	.	.	.	.	.	.	.	.
.	16g\K 16gg	.	.	.	.	.	.	.	.	.	.	.	.	.	.
4CC^</ 4C	8.a-\ 8.aa-	.	.	.	.	.	.	.	.	.	.	.	4b-\	pri-	.
.	16an\Jk 16aan	.	.	.	.	.	.	.	.	.	.	.	.	.	.
!!LO:LB:g=original
=104	=104	=104	=104	=104	=104	=104	=104	=104	=104	=104	=104	=104	=104	=104	=104
4BBB-/ 4BB-	8.b-\L 8.bb-	.	.	1ryy	.	.	1ryy	.	.	1ryy	.	.	4.b-\	-ez	.
.	16ff\K	.	.	.	.	.	.	.	.	.	.	.	.	.	.
4BB-\ 4B-	8.ee-\	.	.	.	.	.	.	.	.	.	.	.	.	.	.
.	.	.	.	.	.	.	.	.	.	.	.	.	8b-\	pri-	.
.	16dd\Jk	.	.	.	.	.	.	.	.	.	.	.	.	.	.
4BBB-/ 4BB-	8.b-\L 8.bb-	.	.	.	.	.	.	.	.	.	.	.	4.b-\	-ez	.
.	16ee-\K	.	.	.	.	.	.	.	.	.	.	.	.	.	.
4BB-\ 4F 4An	8.dd\	.	.	.	.	.	.	.	.	.	.	.	.	.	.
.	.	.	.	.	.	.	.	.	.	.	.	.	8b-\	tou-	.
.	16cc\Jk	.	.	.	.	.	.	.	.	.	.	.	.	.	.
=105	=105	=105	=105	=105	=105	=105	=105	=105	=105	=105	=105	=105	=105	=105	=105
4BBB-/ 4BB-	8.b-\L 8.bb-	.	.	1ryy	.	.	1ryy	.	.	1ryy	.	.	2.b-\	-jours	.
.	16ff\K	.	.	.	.	.	.	.	.	.	.	.	.	.	.
4BB-\ 4B-	8.dd\	.	.	.	.	.	.	.	.	.	.	.	.	.	.
.	16ff\Jk	.	.	.	.	.	.	.	.	.	.	.	.	.	.
4BBB-/ 4BB-	4.b-\	.	.	.	.	.	.	.	.	.	.	.	.	.	.
4BB-\ 4B-	.	.	.	.	.	.	.	.	.	.	.	.	8r	.	.
.	8b-\	.	.	.	.	.	.	.	.	.	.	.	8b-\	pri-	.
=106	=106	=106	=106	=106	=106	=106	=106	=106	=106	=106	=106	=106	=106	=106	=106
*^	*	*	*	*	*	*	*	*	*	*	*	*	*	*	*
2EEn/ 2En	2ryy	2b-\ 2dd-X	.	sf	1ryy	.	.	1ryy	.	.	1ryy	.	.	4.dd-X\	-ez	.
.	.	.	.	.	.	.	.	.	.	.	.	.	.	8dd-\	pri-	.
!	!	!	!	!LO:DY:b:t=piu piano.	!	!	!	!	!	!	!	!	!	!	!	!
(<8F/L	4GG\ 4F	2an\ 2cc	.	p	.	.	.	.	.	.	.	.	.	4.cc\	-ez	.
8En/)	.	.	.	.	.	.	.	.	.	.	.	.	.	.	.	.
8F'/	4ryy	.	.	.	.	.	.	.	.	.	.	.	.	.	.	.
8F'/J	.	.	.	.	.	.	.	.	.	.	.	.	.	8cc\	tou	.
=107	=107	=107	=107	=107	=107	=107	=107	=107	=107	=107	=107	=107	=107	=107	=107	=107
2FF#X^/ 2F#X	2ryy	2cc\ 2ee-	.	sf	1ryy	.	.	1ryy	.	.	1ryy	.	.	4.ee-\	jours	.
.	.	.	.	.	.	.	.	.	.	.	.	.	.	8ee-\	pri-	.
(<8G/L	4GG\ 4G	2bn\ 2dd	.	.	.	.	.	.	.	.	.	.	.	4.ddn\	-ez	.
8F#X/)	.	.	.	.	.	.	.	.	.	.	.	.	.	.	.	.
8G'/	4ryy	.	.	.	.	.	.	.	.	.	.	.	.	.	.	.
8G'/J	.	.	.	.	.	.	.	.	.	.	.	.	.	8dd\	pri-	.
*v	*v	*	*	*	*	*	*	*	*	*	*	*	*	*	*	*
=108	=108	=108	=108	=108	=108	=108	=108	=108	=108	=108	=108	=108	=108	=108	=108
2BBn\ 2Bn	(2a-\ 2dd 2ff	.	sf	1ryy	.	.	1ryy	.	.	1ryy	.	.	4.ff\	-ez	.
.	.	.	.	.	.	.	.	.	.	.	.	.	8ff\	tou-	.
!	!LO:TX:b:i:t=sost.	!	!	!	!	!	!	!	!	!	!	!	!	!	!
4C\ 4c	4g\ 4cc 4ee-	.	.	.	.	.	.	.	.	.	.	.	4ee-\	-jours	.
4FF/ 4F	4f\ 4a- 4dd	.	.	.	.	.	.	.	.	.	.	.	4dd\	pri-	.
=109	=109	=109	=109	=109	=109	=109	=109	=109	=109	=109	=109	=109	=109	=109	=109
2GG\ 2G	4e-\ 4cc	.	.	1ryy	.	.	1ryy	.	.	1ryy	.	.	4cc\	-ez	.
.	4d\ 4bn	.	.	.	.	.	.	.	.	.	.	.	4bn\	pri-	.
4C\ 4c	4e-\ 4cc	.	.	.	.	.	.	.	.	.	.	.	4cc\	-ez	.
4BB-X\ 4B-X	4f\) 4a- 4dd	.	sf	.	.	.	.	.	.	.	.	.	4dd\	tou-	.
!!LO:PB:g=original
=110	=110	=110	=110	=110	=110	=110	=110	=110	=110	=110	=110	=110	=110	=110	=110
!	!LO:TX:a:t=CHOEUR:rj	!	!	!LO:TX:a:t=BASSE.	!	!	!LO:TX:a:t=TÉNOR.	!	!	!	!	!	!LO:TX:a:i:t=animato.	!	!
!	!LO:TX:a:i:t=animato	!	!	!	!	!LO:DY:b:rj	!	!	!	!	!	!	!	!	!
4.EE-/ 4.E-	8e-/L 8g 8ee-	.	f	4.E-\	Fer-	f	1r	.	.	1r	.	.	2ee-\	-jours	.
.	8e-/	.	.	.	.	.	.	.	.	.	.	.	.	.	.
.	8e-/	.	.	.	.	.	.	.	.	.	.	.	.	.	.
8F\	8e-/J	.	.	8F\	-me-	.	.	.	.	.	.	.	.	.	.
2G^>\	8e-/L	.	.	2G\	-té	.	.	.	.	.	.	.	2r	.	.
.	8f/	.	.	.	.	.	.	.	.	.	.	.	.	.	.
.	8g/	.	.	.	.	.	.	.	.	.	.	.	.	.	.
.	8e-/J	.	.	.	.	.	.	.	.	.	.	.	.	.	.
=111	=111	=111	=111	=111	=111	=111	=111	=111	=111	=111	=111	=111	=111	=111	=111
*^	*^	*	*	*	*	*	*	*	*	*	*	*	*	*	*
!	!	!	!	!	!	!	!	!	!	!	!LO:DY:a:rj	!LO:TX:a:t=2ᵉ.DESSUS.	!	!	!	!	!
4.F/	2.BB-\	8d/L	2ryy	.	.	4.F\	pa-	.	4.d\	Pa-	f	1r	.	.	1r	.	.
.	.	8f/	.	.	.	.	.	.	.	.	.	.	.	.	.	.	.
.	.	8b-/	.	.	.	.	.	.	.	.	.	.	.	.	.	.	.
8G/	.	8b-/J	.	.	.	8G\	-ti-	.	8e-\	-ti-	.	.	.	.	.	.	.
4A-^>/	.	8b-/L	4f\	.	.	4A-\	-en-	.	4f\	-en-	.	.	.	.	.	.	.
.	.	8cc/	.	.	.	.	.	.	.	.	.	.	.	.	.	.	.
4F^>/	4BB-\	8dd/	4d\	.	.	4F\	-ce	.	4d\	-ce	.	.	.	.	.	.	.
.	.	8b-/J	.	.	.	.	.	.	.	.	.	.	.	.	.	.	.
*	*	*v	*v	*	*	*	*	*	*	*	*	*	*	*	*	*	*
=112	=112	=112	=112	=112	=112	=112	=112	=112	=112	=112	=112	=112	=112	=112	=112	=112
!	!	!	!	!	!	!	!	!	!	!	!	!	!	!LO:TX:a:t=1r.DESSUS.	!	!
!	!	!	!	!	!	!	!	!LO:N:vis=2.	!	!	!	!	!LO:DY:a:rj	!LO:TX:a:B:t=CHOEUR.	!	!
4.B-/	2.E-\	8g/L 8ee-	.	.	(4.G\	es	.	(4.e-\	es	.	(4.e-/	Es	f	1r	.	.
.	.	8b-/	.	.	.	.	.	.	.	.	.	.	.	.	.	.
.	.	8a-/	.	.	.	.	.	.	.	.	.	.	.	.	.	.
8d/	.	8f/J	.	.	8A-\)	.	.	8d\)	.	.	8f/)	.	.	.	.	.
4G/	.	8e-/L	.	.	4B-\	poir	.	4B-\	poir	.	4g/	poir	.	.	.	.
.	.	8f/	.	.	.	.	.	.	.	.	.	.	.	.	.	.
4E-/	4ryy	8g/	.	.	4G\	des	.	4B-\	des	.	4e-/	des	.	.	.	.
.	.	8a-/J	.	.	.	.	.	.	.	.	.	.	.	.	.	.
=113	=113	=113	=113	=113	=113	=113	=113	=113	=113	=113	=113	=113	=113	=113	=113	=113
*	*	*^	*	*	*	*	*	*	*	*	*	*	*	*	*	*
!	!	!	!	!	!	!	!	!	!	!	!	!	!	!	!	!	!LO:DY:a:rj
4.B-/	2BB-\	4.b-/	8d\L	.	.	4.BB-/	plus	.	4.B-\	plus	.	4.d/	plus	.	4.b-\	des	f
.	.	.	8f\	.	.	.	.	.	.	.	.	.	.	.	.	.	.
.	.	.	8f\	.	.	.	.	.	.	.	.	.	.	.	.	.	.
8An/	.	8cc/	8f\J	.	<	8BB-/	beaux	.	8An\	beaux	.	8f/	beaux	.	8b-\	plus	.
8A-X/L	2BB-\	4f/ 4dd	4d\	.	.	2BB-^>/	jours	.	2A-X^>\	jours	.	2f^>/	jours	.	4cc^\	beaux	.
8F/	.	.	.	.	[	.	.	.	.	.	.	.	.	.	.	.	.
8D/	.	4f/ 4dd	4d\	.	.	.	.	.	.	.	.	.	.	.	4dd\	jours	.
8BB-/J	.	.	.	.	.	.	.	.	.	.	.	.	.	.	.	.	.
*v	*v	*	*	*	*	*	*	*	*	*	*	*	*	*	*	*	*
*	*v	*v	*	*	*	*	*	*	*	*	*	*	*	*	*	*
=114	=114	=114	=114	=114	=114	=114	=114	=114	=114	=114	=114	=114	=114	=114	=114
!	!LO:TX:a:i:t=cantabile.	!	!	!	!	!LO:DY:a:rj	!	!	!LO:DY:a	!	!	!LO:DY:a:rj	!	!	!LO:DY:a
4.E-\	4.e-\ 4.g 4.ee-	.	f	4.E-\	ha-	f	4.G/	ha-	f	4.e-/	ha-	f	4.ee-\	ha-	f
!	!	!	!	!	!	!LO:HP:a	!	!	!LO:HP:a	!	!	!LO:HP:a	!	!	!LO:HP:a
8F\	8d\ 8dd	.	>	8F\	-te-	>	8B-\	-te-	>	8a-/	-te-	>	8dd\	-te-	>
4A-^>\	4c/ 4e- 4cc	.	.	(4A-\	-ront	.	(4c\	-ront	.	2e-/	-ront	]]	(4cc\	-ront	.
4G\	4B-/ 4e- 4b-	.	]	4G\)	.	]	4B-\)	.	]	.	.	.	4b-\)	.	]]
!!LO:LB:g=original
=115	=115	=115	=115	=115	=115	=115	=115	=115	=115	=115	=115	=115	=115	=115	=115
4.E-\	(>4.e-\ 4.g 4.ee-	.	>	(4.E-\	les	.	2.e-\	les	.	2.e-/	les	.	(4.ee-\	les	.
8F\	8e-\ 8dd	.	.	8F\	.	.	.	.	.	.	.	.	8dd\	.	.
4A-\	[<4e-\ 4cc	.	.	4A-\)	.	.	.	.	.	.	.	.	4cc\)	.	.
4G\	4e-\]) 4b-	.	]	4G\	beaux	.	4e-\	beaux	.	4e-/	beaux	.	4b-\	beaux	.
=116	=116	=116	=116	=116	=116	=116	=116	=116	=116	=116	=116	=116	=116	=116	=116
*tremolo	*	*	*	*	*	*	*	*	*	*	*	*	*	*	*
!LO:TX:b:i:t=tremolo	!	!	!	!	!	!LO:DY:a:rj	!	!	!LO:DY:a:rj	!	!	!LO:DY:a:rj	!	!	!LO:DY:a:rj
32EE-;\LLL (>32E-	(<2e-;>\ 2g [>2ee-	.	p	2E-;>\	jours	p	2e-;>\	jours	p	2g;>/	jours	p	2ee-;>\	jours	p
32EE-\ 32E-	.	.	.	.	.	.	.	.	.	.	.	.	.	.	.
32EE-\ 32E-	.	.	.	.	.	.	.	.	.	.	.	.	.	.	.
32EE-\ 32E-	.	.	.	.	.	.	.	.	.	.	.	.	.	.	.
32EE-\ 32E-	.	.	.	.	.	.	.	.	.	.	.	.	.	.	.
32EE-\ 32E-	.	.	.	.	.	.	.	.	.	.	.	.	.	.	.
32EE-\ 32E-	.	.	.	.	.	.	.	.	.	.	.	.	.	.	.
32EE-\ 32E-	.	.	.	.	.	.	.	.	.	.	.	.	.	.	.
32EE-\ 32E-	.	.	.	.	.	.	.	.	.	.	.	.	.	.	.
32EE-\ 32E-	.	.	.	.	.	.	.	.	.	.	.	.	.	.	.
32EE-\ 32E-	.	.	.	.	.	.	.	.	.	.	.	.	.	.	.
32EE-\ 32E-	.	.	.	.	.	.	.	.	.	.	.	.	.	.	.
32EE-\ 32E-	.	.	.	.	.	.	.	.	.	.	.	.	.	.	.
32EE-\ 32E-	.	.	.	.	.	.	.	.	.	.	.	.	.	.	.
32EE-\ 32E-	.	.	.	.	.	.	.	.	.	.	.	.	.	.	.
32EE-\JJJ 32E-	.	.	.	.	.	.	.	.	.	.	.	.	.	.	.
*Xtremolo	*	*	*	*	*	*	*	*	*	*	*	*	*	*	*
4EE-\ 4E-)	8g\L) 8ee-]	.	.	2r	.	.	2r	.	.	2r	.	.	2r	.	.
.	(>8b-\	.	.	.	.	.	.	.	.	.	.	.	.	.	.
4r	8an\	.	.	.	.	.	.	.	.	.	.	.	.	.	.
.	8a-X\J)	.	.	.	.	.	.	.	.	.	.	.	.	.	.
=117	=117	=117	=117	=117	=117	=117	=117	=117	=117	=117	=117	=117	=117	=117	=117
!	!	!	!	!	!	!LO:DY:a	!	!	!LO:DY:a	!	!	!LO:DY:a	!	!	!LO:DY:a
4EE-/	2.d-X/ 2.g	.	p	4E-\	Et	p	4B-\	Et	p	4d-X/	Et	p	4g/	Et	p
(16E-\LL	.	.	.	4E-\	l'on	.	4B-\	l'on	.	4d-/	l'on	.	4g/	l'on	.
16Dn\	.	.	.	.	.	.	.	.	.	.	.	.	.	.	.
16E-\	.	.	.	.	.	.	.	.	.	.	.	.	.	.	.
16D\JJ	.	.	.	.	.	.	.	.	.	.	.	.	.	.	.
4E-\)	.	.	.	4E-\	ver-	.	4B-\	ver-	.	4d-/	ver-	.	4g/	ver-	.
4EE-/	8.d-/L 8.g	.	.	8.E-\	-ra	.	8.B-\	-ra	.	8.d-/	-ra	.	8.g/	-ra	.
.	16d-/Jk 16g	.	.	16E-\	ces-	.	16B-\	ces-	.	16d-/	ces-	.	16g/	ces-	.
=118	=118	=118	=118	=118	=118	=118	=118	=118	=118	=118	=118	=118	=118	=118	=118
8.AA-/L	2.c/ 2.a-	.	.	2AA-^>/	-ser	.	2A-^>/	-ser	.	2c^>/	-ser	.	2a-^>/	-ser	.
(16GG/Jk	.	.	.	.	.	.	.	.	.	.	.	.	.	.	.
16AA-/LL	.	.	.	.	.	.	.	.	.	.	.	.	.	.	.
16C/	.	.	.	.	.	.	.	.	.	.	.	.	.	.	.
16E-/	.	.	.	.	.	.	.	.	.	.	.	.	.	.	.
16C/JJ	.	.	.	.	.	.	.	.	.	.	.	.	.	.	.
4AA-/)	.	.	.	2r	.	.	2r	.	.	2r	.	.	2r	.	.
4r	8.c/L 8.a-	.	.	.	.	.	.	.	.	.	.	.	.	.	.
.	16c/Jk 16a-	.	.	.	.	.	.	.	.	.	.	.	.	.	.
=119	=119	=119	=119	=119	=119	=119	=119	=119	=119	=119	=119	=119	=119	=119	=119
!	!	!	!	!	!	!LO:HP:a	!	!	!LO:HP:a	!	!	!LO:HP:a	!	!	!LO:HP:a
4FF/	4c/ 4e- 4an	.	.	4F\	un	<	4c\	un	<	4e-/	un	<	4an\	un	<
(16F\LL	2c/ 2e- 2a	.	sf	4F\	in	.	4c\	in	.	4e-/	in	.	4a\	in	.
16En\	.	.	.	.	.	.	.	.	.	.	.	.	.	.	.
16F\	.	.	.	.	.	.	.	.	.	.	.	.	.	.	.
16E\JJ	.	.	.	.	.	.	.	.	.	.	.	.	.	.	.
4F\)	.	.	.	4F\	jus-	.	4c\	jus-	.	4e-/	jus-	.	4a\	jus-	.
4FF/	8.c/L 8.e- 8.a	.	.	8.F\	-te	.	8.c\	-te	.	8.e-/	-te	.	8.a\	-te	.
.	16c/Jk 16e- 16a	.	.	16F\	par-	[	16c\	par-	[	16e-/	par-	[	16a\	par-	[[
!!LO:PB:g=original
=120	=120	=120	=120	=120	=120	=120	=120	=120	=120	=120	=120	=120	=120	=120	=120
4BB-/	4dn/ 4b-	.	.	2BB-/	-ta-	.	2B-\	-ta-	.	2dn/	-ta-	.	2b-\	-ta-	.
16BB-/LL	2d/ 2b-	.	sf	.	.	.	.	.	.	.	.	.	.	.	.
16D/	.	.	.	.	.	.	.	.	.	.	.	.	.	.	.
16F/	.	.	.	.	.	.	.	.	.	.	.	.	.	.	.
16D/JJ	.	.	.	.	.	.	.	.	.	.	.	.	.	.	.
4BB-/	.	.	.	4BB-/	-ge	.	4B-\	-ge	.	4d/	-ge	.	4b-\	-ge	.
4r	4d/ 4b-	.	.	4r	.	.	4r	.	.	4r	.	.	4r	.	.
=121	=121	=121	=121	=121	=121	=121	=121	=121	=121	=121	=121	=121	=121	=121	=121
!	!LO:TUP:b:problem=brak klamry	!	!	!	!	!LO:DY:a:rj	!	!	!LO:DY:a:rj	!	!	!LO:DY:a:rj	!	!	!LO:DY:a:rj
2.GG-X\ 2.G-X	12b-/L	.	mf	4.G-X\	D'un	mf	4.d-X\	D'un	mf	4.g-X/	D'un	mf	4.b-\	D'un	mf
!	!LO:TX:b:i:t=cantabile.	!	!	!	!	!	!	!	!	!	!	!	!	!	!
.	12d-X/	.	.	.	.	.	.	.	.	.	.	.	.	.	.
.	12g-X/J	.	.	.	.	.	.	.	.	.	.	.	.	.	.
!	!LO:TUP:b:problem=brak klamry	!	!	!	!	!	!	!	!	!	!	!	!	!	!
.	12b-/L	.	.	.	.	.	.	.	.	.	.	.	.	.	.
.	12g-/	.	.	.	.	.	.	.	.	.	.	.	.	.	.
.	.	.	.	8G-\	grand	.	8d-\	grand	.	8g-/	grand	.	8b-\	grand	.
.	12d-/J	.	.	.	.	.	.	.	.	.	.	.	.	.	.
!	!LO:TUP:b:problem=brak klamry	!	!	!	!	!	!	!	!	!	!	!	!	!	!
.	12b-/L	.	.	2G-\	peuple	.	2d-\	peuple	.	2g-/	peuple	.	2b-\	peuple	.
.	12g-/	.	.	.	.	.	.	.	.	.	.	.	.	.	.
.	12d-/J	.	.	.	.	.	.	.	.	.	.	.	.	.	.
!	!LO:TUP:b:problem=brak klamry	!	!	!	!	!	!	!	!	!	!	!	!	!	!
4GG-\ 4G-	12b-/L	.	.	.	.	.	.	.	.	.	.	.	.	.	.
.	12g-/	.	.	.	.	.	.	.	.	.	.	.	.	.	.
.	12d-/J	.	.	.	.	.	.	.	.	.	.	.	.	.	.
=122	=122	=122	=122	=122	=122	=122	=122	=122	=122	=122	=122	=122	=122	=122	=122
!	!LO:TUP:b:problem=brak klamry	!	!	!	!	!	!	!	!	!	!	!	!	!	!
2FF/ 2F	12cc-X/L	.	sf	4.F^>\	op	.	4.dn^>\	op	.	4.a-^>/	op	.	4.cc-X^>\	op	.
.	12dn/	.	.	.	.	.	.	.	.	.	.	.	.	.	.
.	12a-/J	.	.	.	.	.	.	.	.	.	.	.	.	.	.
!	!LO:TUP:b:problem=brak klamry	!	!	!	!	!	!	!	!	!	!	!	!	!	!
.	12cc-/L	.	.	.	.	.	.	.	.	.	.	.	.	.	.
.	12a-/	.	.	.	.	.	.	.	.	.	.	.	.	.	.
.	.	.	.	8F\	pri-	.	8d\	pri-	.	8a-/	pri-	.	8cc-\	pri-	.
.	12d/J	.	.	.	.	.	.	.	.	.	.	.	.	.	.
!	!LO:TUP:b:problem=brak klamry	!	!	!	!	!	!	!	!	!	!	!	!	!	!
2GG-X/ 2G-X	12b-/L	.	.	2G-X^>\	-mé	.	2d-X^>\	-mé	.	2g-X^>/	-mé	.	2b-^>\	-mé	.
.	12d-X/	.	.	.	.	.	.	.	.	.	.	.	.	.	.
.	12g-X/J	.	.	.	.	.	.	.	.	.	.	.	.	.	.
!	!LO:TUP:b:problem=brak klamry	!	!	!	!	!	!	!	!	!	!	!	!	!	!
.	12b-/L	.	.	.	.	.	.	.	.	.	.	.	.	.	.
.	12g-/	.	.	.	.	.	.	.	.	.	.	.	.	.	.
.	12d-/J	.	.	.	.	.	.	.	.	.	.	.	.	.	.
=123	=123	=123	=123	=123	=123	=123	=123	=123	=123	=123	=123	=123	=123	=123	=123
!	!LO:TUP:b:problem=brak klamry	!	!	!	!	!LO:DY:a	!	!	!LO:DY:a	!	!	!LO:DY:a	!	!	!
2.GG-X/ 2.G-X	12b-/L	.	.	4G-X\	la	.	4B-\	la	.	4g-X/	la	.	4b-\	la	.
.	12d-X/	.	.	.	.	.	.	.	.	.	.	.	.	.	.
.	12g-X/J	.	.	.	.	.	.	.	.	.	.	.	.	.	.
!	!LO:TUP:b:problem=brak klamry	!	!	!	!	!LO:HP:a:t=cres	!	!	!LO:HP:a:t=cres	!	!	!LO:HP:a:t=cres	!	!	!LO:HP:a:t=cres
.	12b-/L	.	.	4G-\	foi	<	4B-\	foi	<	4g-/	foi	<	4b-\	foi	<
.	12g-/	.	.	.	.	.	.	.	.	.	.	.	.	.	.
.	12d-/J	.	.	.	.	.	.	.	.	.	.	.	.	.	.
!	!LO:TUP:b:problem=brak klamry	!	!	!	!	!	!	!	!	!	!	!	!	!	!
.	12b-/L	.	.	4G-\	fait	.	4B-\	fait	.	4g-/	fait	.	4b-\	fait	.
.	12g-/	.	.	.	.	.	.	.	.	.	.	.	.	.	.
.	12d-/J	.	.	.	.	.	.	.	.	.	.	.	.	.	.
!	!LO:TUP:b:problem=brak klamry	!	!	!	!	!	!	!	!	!	!	!	!	!	!
4GG-/ 4G-	12b-/L	.	.	8.G-\	le	.	8.B-\	le	.	8.g-/	le	.	8.b-\	le	.
.	12g-/	.	.	.	.	.	.	.	.	.	.	.	.	.	.
.	12d-/J	.	.	.	.	.	.	.	.	.	.	.	.	.	.
.	.	.	.	16G-\	cou-	.	16B-\	cou-	.	16b-/	cou-	.	16b-\	cou-	.
=124	=124	=124	=124	=124	=124	=124	=124	=124	=124	=124	=124	=124	=124	=124	=124
!	!LO:TUP:b:problem=brak klamry	!	!	!	!	!	!	!	!	!	!	!	!	!	!
((2GGn\ 2Gn	12dd-X/L	.	sf	2Gn^>\	-ra-	.	2e-^>\	-ra-	.	2b-^>\	-ra-	.	2dd-X^>\	-ra-	.
.	12e-/	.	.	.	.	.	.	.	.	.	.	.	.	.	.
.	12b-/J	.	.	.	.	.	.	.	.	.	.	.	.	.	.
!	!LO:TUP:b:problem=brak klamry	!	!	!	!	!	!	!	!	!	!	!	!	!	!
.	12dd-/L	.	.	.	.	.	.	.	.	.	.	.	.	.	.
.	12b-/	.	.	.	.	.	.	.	.	.	.	.	.	.	.
.	12e-/J	.	.	.	.	.	.	.	.	.	.	.	.	.	.
!	!LO:TUP:b:problem=brak klamry	!	!	!	!	!	!	!	!	!	!	!	!	!	!
4AA-\)) 4A-	12cc-X/L	.	.	4A-\	-ge	.	4A-\	-ge	.	4a-\	-ge	.	4cc-X\	-ge	.
.	12e-/	.	.	.	.	.	.	.	.	.	.	.	.	.	.
.	12a-/J	.	.	.	.	.	.	.	.	.	.	.	.	.	.
!	!LO:TUP:b:problem=brak klamry	!	!	!	!	!	!	!	!	!	!	!	!	!	!
4r	12cc-/L	.	.	4r	.	.	4r	.	.	4r	.	.	4r	.	.
.	12a-/	.	.	.	.	.	.	.	.	.	.	.	.	.	.
.	12e-/J	.	.	.	.	.	.	.	.	.	.	.	.	.	.
!!LO:LB:g=original
=125	=125	=125	=125	=125	=125	=125	=125	=125	=125	=125	=125	=125	=125	=125	=125
*	*Xtuplet	*	*	*	*	*	*	*	*	*	*	*	*	*	*
2.AA-\ 2.A-	12cc-X/L	.	.	4.A-\	La	.	4.e-\	La	.	4.a-/	La	.	4.cc-X\	La	.
.	12e-/	.	.	.	.	.	.	.	.	.	.	.	.	.	.
.	12a-/J	.	.	.	.	.	.	.	.	.	.	.	.	.	.
.	12cc-/L	.	.	.	.	.	.	.	.	.	.	.	.	.	.
.	12a-/	.	.	.	.	.	.	.	.	.	.	.	.	.	.
.	.	.	.	8A-\	cé-	.	8e-\	cé-	.	8a-/	cé-	.	8cc-\	cé-	.
.	12e-/J	.	.	.	.	.	.	.	.	.	.	.	.	.	.
.	12cc-/L	.	.	2A-\	-les-	.	2e-\	-les-	.	2a-/	-les-	.	2cc-\	-les-	.
.	12a-/	.	.	.	.	.	.	.	.	.	.	.	.	.	.
.	12e-/J	.	.	.	.	.	.	.	.	.	.	.	.	.	.
4AA-\ 4A-	12cc-/L	.	.	.	.	.	.	.	.	.	.	.	.	.	.
.	12a-/	.	.	.	.	.	.	.	.	.	.	.	.	.	.
.	12e-/J	.	.	.	.	.	.	.	.	.	.	.	.	.	.
=126	=126	=126	=126	=126	=126	=126	=126	=126	=126	=126	=126	=126	=126	=126	=126
!	!	!	!	!	!	!LO:HP:a	!	!	!LO:HP:a	!	!	!LO:HP:a	!	!	!LO:HP:a
2AAn\ 2An	12ee-\L	.	sf	4An\	-te	<	4c\	-te	<	4ccn\	-te	<	4ee-\	-te	<
.	12f\	.	.	.	.	.	.	.	.	.	.	.	.	.	.
.	12ccn\J	.	.	.	.	.	.	.	.	.	.	.	.	.	.
.	12ee-\L	.	.	4A\	bon-	.	4f\	bon-	.	4cc\	bon-	.	4ee-\	bon-	.
.	12cc\	.	.	.	.	.	.	.	.	.	.	.	.	.	.
.	12f\J	.	.	.	.	.	.	.	.	.	.	.	.	.	.
4BB-\ 4B-	12ddn\L	.	.	2B-\	-té	[[	2f\	-té	[[	2b-\	-té	[[	2ddn\	-té	[[
.	12f\	.	.	.	.	.	.	.	.	.	.	.	.	.	.
.	12b-\J	.	.	.	.	.	.	.	.	.	.	.	.	.	.
4ryy	12dd\L	.	.	.	.	.	.	.	.	.	.	.	.	.	.
.	12b-\	.	.	.	.	.	.	.	.	.	.	.	.	.	.
.	12f\J	.	.	.	.	.	.	.	.	.	.	.	.	.	.
=127	=127	=127	=127	=127	=127	=127	=127	=127	=127	=127	=127	=127	=127	=127	=127
!	!	!	!	!	!	!LO:DY:a:rj	!	!	!LO:DY:a:rj	!	!	!LO:DY:a:rj	!	!	!LO:DY:a
4AAn\ 4An	12cc\L	.	f	4An\	ja-	f	4f\	ja-	f	4cc\	ja-	f	4cc\	ja-	f
.	12f\	.	.	.	.	.	.	.	.	.	.	.	.	.	.
.	12cc\J	.	.	.	.	.	.	.	.	.	.	.	.	.	.
2FF\ 2F	12ff\L	.	.	4.F\	-mais	.	4.f\	-mais	.	4.cc\	-mais	.	4.ff^\	-mais	.
.	12cc\	.	.	.	.	.	.	.	.	.	.	.	.	.	.
.	12f\J	.	.	.	.	.	.	.	.	.	.	.	.	.	.
.	12cc\L	.	.	.	.	.	.	.	.	.	.	.	.	.	.
.	12f\	.	.	.	.	.	.	.	.	.	.	.	.	.	.
.	.	.	.	8F\	ne	.	8f\	ne	.	8cc\	ne	.	8ff\	ne	.
.	12cc\J	.	.	.	.	.	.	.	.	.	.	.	.	.	.
4AA\ 4A	12ee-\L	.	.	8Gn\	l'ou-	.	8f\	l'ou-	.	8cc\	l'ou-	.	8ee-\	l'ou-	.
.	12cc\	.	.	.	.	.	.	.	.	.	.	.	.	.	.
.	.	.	.	8An\	-bli-	.	8f\	-bli-	.	8cc\	-bli-	.	8cc\	-bli-	.
.	12f\J	.	.	.	.	.	.	.	.	.	.	.	.	.	.
=128	=128	=128	=128	=128	=128	=128	=128	=128	=128	=128	=128	=128	=128	=128	=128
2.BB-\ 2.B-	12dd\L	.	.	2B-\	-a	.	2B-\	-a	.	2b-\	-a	.	2dd\	-a	.
.	12f\	.	.	.	.	.	.	.	.	.	.	.	.	.	.
.	12b-\J	.	.	.	.	.	.	.	.	.	.	.	.	.	.
.	12dd\L	.	.	.	.	.	.	.	.	.	.	.	.	.	.
.	12b-\	.	.	.	.	.	.	.	.	.	.	.	.	.	.
.	12f\J	.	>	.	.	.	.	.	.	.	.	.	.	.	.
.	12dd\L	.	.	2r	.	.	2r	.	.	2r	.	.	2r	.	.
.	12b-\	.	.	.	.	.	.	.	.	.	.	.	.	.	.
.	12f\J	.	.	.	.	.	.	.	.	.	.	.	.	.	.
4BB-\ 4A-X	12b-\L	.	.	.	.	.	.	.	.	.	.	.	.	.	.
.	12cc\	.	.	.	.	.	.	.	.	.	.	.	.	.	.
.	12dd\J	.	]	.	.	.	.	.	.	.	.	.	.	.	.
=129	=129	=129	=129	=129	=129	=129	=129	=129	=129	=129	=129	=129	=129	=129	=129
*^	*	*	*	*	*	*	*	*	*	*	*	*	*	*	*
!	!	!LO:TX:a:i:t=cantabile.	!	!	!	!	!LO:DY:a:rj	!	!	!LO:DY:a:rj	!	!	!LO:DY:a:rj	!LO:TX:a:i:t=cantabile.	!	!LO:DY:a
4.E-/	2E-\	(4.e-/ 4.g 4.ee-	.	f >	4.E-\	La	f	4.e-\	La	f	4.g/	La	f	4.ee-\	La	f
8F/	.	8d/ 8dd	.	.	8F\	cé-	.	8d\	cé-	.	8a-/	cé-	.	8dd\	cé-	.
4A-X/	4A-X\	4c/ 4e- 4cc	.	.	(4A-X\	-les-	.	2e-\	-les-	.	(4a-/	-les-	.	(4cc\	-les-	.
4G/	4G\	4B-/) 4e- 4b-	.	]	4G\)	.	.	.	.	.	4e-/)	.	.	4b-\)	.	.
!!LO:PB:g=original
=130	=130	=130	=130	=130	=130	=130	=130	=130	=130	=130	=130	=130	=130	=130	=130	=130
4.E-/	2E-\	(4.e-/ 4.g 4.ee-	.	>	4.E-^>\	-te	.	4.e-^>\	-te	.	4.g^>/	-te	.	4.ee-^\	-te	.
8F/	.	8d/ 8a- 8dd	.	.	8F\	bon-	.	8d\	bon-	.	8a-/	bon-	.	8dd\	bon-	.
4A-/	2ryy	4c/ 4e- 4a- 4cc	.	.	4A-\	-té	.	4e-\	-té	.	4a-/	-té	.	4cc\	-té	.
4G/	.	4B-/) 4e- 4b-	.	]	4G\	ja-	.	4e-\	ja-	.	4b-/	ja-	.	4b-\	ja-	.
=131	=131	=131	=131	=131	=131	=131	=131	=131	=131	=131	=131	=131	=131	=131	=131	=131
!	!	!	!	!	!	!	!LO:DY:a:rj	!	!	!LO:DY:a:rj	!	!	!LO:DY:a:rj	!	!	!LO:DY:a:rj
!	!	!	!	!	!	!	!LO:HP:a:t=dim	!	!	!LO:HP:a:t=dim	!	!	!LO:HP:a:t=dim	!	!	!LO:HP:a:t=dim
4.E-/	2E-\	(4.e-/ 4.g 4.ee-	.	>	4.E-\	-mais	p >	4.e-\	-mais	p >	4.g/	-mais	p >	4.ee-\	-mais	p >
8F/	.	8d/ 8a- 8dd	.	.	8F\	ne	.	8d\	ne	.	8a-/	ne	.	8dd\	ne	.
4A-/	2ryy	4c/ 4e- 4a- 4cc	.	.	4A-\	l'ou-	.	4e-\	l'ou-	.	4a-/	l'ou-	.	4cc\	l'ou-	.
4G/	.	4B-/) 4e- 4b-	.	]	4G\	-bli-	.	4e-\	-bli-	.	4b-/	-bli-	.	4b-\	-bli-	.
*v	*v	*	*	*	*	*	*	*	*	*	*	*	*	*	*	*
=132	=132	=132	=132	=132	=132	=132	=132	=132	=132	=132	=132	=132	=132	=132	=132
!	!	!	!	!	!	!LO:DY:a:rj	!	!	!LO:DY:a:rj	!	!	!LO:DY:a:rj	!	!	!LO:DY:a:rj
2EE-/ 2E-	8ee-\L	.	.	2E-\	-a	pp	2e-\	-a	pp	2g/	-a	pp	2ee-\	-a	pp
.	16e-\L	.	<	.	.	.	.	.	.	.	.	.	.	.	.
.	16f\JJ	.	.	.	.	.	.	.	.	.	.	.	.	.	.
.	16g\LL	.	.	.	.	.	.	.	.	.	.	.	.	.	.
.	16a-\	.	.	.	.	.	.	.	.	.	.	.	.	.	.
.	16b-\	.	.	.	.	.	.	.	.	.	.	.	.	.	.
.	16cc\JJ	.	.	.	.	.	.	.	.	.	.	.	.	.	.
2r	16dd\LL	.	.	2r	.	.	2r	.	.	2r	.	.	2r	.	.
.	16ee-\	.	.	.	.	.	.	.	.	.	.	.	.	.	.
.	16ff\	.	.	.	.	.	.	.	.	.	.	.	.	.	.
.	16gg\JJ	.	.	.	.	.	.	.	.	.	.	.	.	.	.
.	16aa-\LL	.	.	.	.	.	.	.	.	.	.	.	.	.	.
.	16bb-\	.	.	.	.	.	.	.	.	.	.	.	.	.	.
.	16ccc\	.	.	.	.	.	.	.	.	.	.	.	.	.	.
.	16ddd\JJ	.	[	.	.	.	.	.	.	.	.	.	.	.	.
=133	=133	=133	=133	=133	=133	=133	=133	=133	=133	=133	=133	=133	=133	=133	=133
!	!	!	!	!	!	!LO:DY:a:rj	!	!	!LO:DY:a:rj	!	!	!LO:DY:a:rj	!LO:TX:a:i:t=largamente ma piu stretto.	!	!LO:DY:a:rj
16EE-/LL	4.eee-\	.	ff	2E-\	Et	f	2e-\	Et	f	2g/	Et	f	2ee-\	Et	f
16E-/	.	.	.	.	.	.	.	.	.	.	.	.	.	.	.
16EE-/	.	.	.	.	.	.	.	.	.	.	.	.	.	.	.
16E-/JJ	.	.	.	.	.	.	.	.	.	.	.	.	.	.	.
16EE-/LL	.	.	.	.	.	.	.	.	.	.	.	.	.	.	.
16E-/	.	.	.	.	.	.	.	.	.	.	.	.	.	.	.
!	!LO:TX:a:i:t=largement.	!	!	!	!	!	!	!	!	!	!	!	!	!	!
16EE-/	8e-\ 8g 8b- 8ee-	.	.	.	.	.	.	.	.	.	.	.	.	.	.
16E-/JJ	.	.	.	.	.	.	.	.	.	.	.	.	.	.	.
16EE-/LL	4e-\ 4g 4b- 4ee-	.	.	4E-\	be-	.	4B-\	be-	.	4g/	be-	.	4ee-\	be-	.
16E-/	.	.	.	.	.	.	.	.	.	.	.	.	.	.	.
16EE-/	.	.	.	.	.	.	.	.	.	.	.	.	.	.	.
16E-/JJ	.	.	.	.	.	.	.	.	.	.	.	.	.	.	.
16EE-/LL	4e-\ 4g 4b- 4ee-	.	.	4E-\	-ne	.	4B-\	-ne	.	4g/	-ne	.	4ee-\	-ne	.
16E-/	.	.	.	.	.	.	.	.	.	.	.	.	.	.	.
16EE-/	.	.	.	.	.	.	.	.	.	.	.	.	.	.	.
16E-/JJ	.	.	.	.	.	.	.	.	.	.	.	.	.	.	.
=134	=134	=134	=134	=134	=134	=134	=134	=134	=134	=134	=134	=134	=134	=134	=134
16EE-/LL	4.e-\ 4.f#X 4.an 4.ee-	.	sf	4.E-^>\	dic-	.	4.c^>\	dic-	.	4.f#X/	dic-	.	4.ee-\	dic-	.
16E-/	.	.	.	.	.	.	.	.	.	.	.	.	.	.	.
16EE-/	.	.	.	.	.	.	.	.	.	.	.	.	.	.	.
16E-/JJ	.	.	.	.	.	.	.	.	.	.	.	.	.	.	.
16EE-/LL	.	.	.	.	.	.	.	.	.	.	.	.	.	.	.
16E-/	.	.	.	.	.	.	.	.	.	.	.	.	.	.	.
16EE-/	8e-\ 8f# 8a 8ee-	.	.	8E-\	-ti-	.	8An\ 8c	-ti-	.	8f#/	-ti-	.	8ee-\	-ti-	.
16E-/JJ	.	.	.	.	.	.	.	.	.	.	.	.	.	.	.
16EE-/LL	2e-^>\ 2g 2b- 2ee-	.	.	4AA-/	.	.	2B-\	-o	.	2g/	-o	.	2ee-\	-o	.
16E-/	.	.	.	.	.	.	.	.	.	.	.	.	.	.	.
16EE-/	.	.	.	.	.	.	.	.	.	.	.	.	.	.	.
16E-/JJ	.	.	.	.	.	.	.	.	.	.	.	.	.	.	.
16EE-/LL	.	.	.	4E-\	-o	.	.	.	.	.	.	.	.	.	.
16E-/	.	.	.	.	.	.	.	.	.	.	.	.	.	.	.
16EE-/	.	.	.	.	.	.	.	.	.	.	.	.	.	.	.
16E-/JJ	.	.	.	.	.	.	.	.	.	.	.	.	.	.	.
!!LO:LB:g=original
=135	=135	=135	=135	=135	=135	=135	=135	=135	=135	=135	=135	=135	=135	=135	=135
16EE-/LL	4.e-\ 4.g 4.b- 4.ee-	.	.	4E-\	Re-	.	4B-\	Re-	.	4g/	Re-	.	4ee-\	Re-	.
16E-/	.	.	.	.	.	.	.	.	.	.	.	.	.	.	.
16EE-/	.	.	.	.	.	.	.	.	.	.	.	.	.	.	.
16E-/JJ	.	.	.	.	.	.	.	.	.	.	.	.	.	.	.
16EE-/LL	.	.	.	4E-\	-gno	.	4B-\	-gno	.	4g/	-gno	.	4ee-\	-gno	.
16E-/	.	.	.	.	.	.	.	.	.	.	.	.	.	.	.
16EE-/	8e-\ 8g 8b- 8ee-	.	.	.	.	.	.	.	.	.	.	.	.	.	.
16E-/JJ	.	.	.	.	.	.	.	.	.	.	.	.	.	.	.
16EE-/LL	4e-\ 4g 4b- 4ee-	.	.	4E-\	di	.	4B-\	di	.	4g/	di	.	4ee-\	di	.
16E-/	.	.	.	.	.	.	.	.	.	.	.	.	.	.	.
16EE-/	.	.	.	.	.	.	.	.	.	.	.	.	.	.	.
16E-/JJ	.	.	.	.	.	.	.	.	.	.	.	.	.	.	.
16EE-/LL	4e-\ 4g 4b- 4ee-	.	.	4E-\	Po-	.	4B-\	Po-	.	4g/	Po-	.	4ee-\	Po-	.
16E-/	.	.	.	.	.	.	.	.	.	.	.	.	.	.	.
16EE-/	.	.	.	.	.	.	.	.	.	.	.	.	.	.	.
16E-/JJ	.	.	.	.	.	.	.	.	.	.	.	.	.	.	.
=136	=136	=136	=136	=136	=136	=136	=136	=136	=136	=136	=136	=136	=136	=136	=136
*	*	*	*	*	*	*	*^	*	*	*	*	*	*	*	*
16EE-/LL	4.f\ 4.a-X 4.cc 4.ff	.	f	4.E-^>\	-lo-	.	4.Bn^>/	4.A-\	-lo-	.	4.fn^>/	-lo-	.	4.ff^>\	-lo-	.
16E-/	.	.	>	.	.	.	.	.	.	.	.	.	.	.	.	.
16EE-/	.	.	.	.	.	.	.	.	.	.	.	.	.	.	.	.
16E-/JJ	.	.	]	.	.	.	.	.	.	.	.	.	.	.	.	.
16EE-/LL	.	.	.	.	.	.	.	.	.	.	.	.	.	.	.	.
16E-/	.	.	.	.	.	.	.	.	.	.	.	.	.	.	.	.
16EE-/	8f\ 8a- 8cc 8ff	.	.	8E-\	-ni-	.	8B/	8A-\	-ni-	.	8f/	-ni-	.	8ff\	-ni-	.
16E-/JJ	.	.	.	.	.	.	.	.	.	.	.	.	.	.	.	.
16EE-/LL	2e-\ 2g 2b- 2ee-	.	.	2E-\	-a	.	2B-X\	2ryy	-a	.	2g/	-a	.	2ee-\	-a	.
16E-/	.	.	.	.	.	.	.	.	.	.	.	.	.	.	.	.
16EE-/	.	.	.	.	.	.	.	.	.	.	.	.	.	.	.	.
16E-/JJ	.	.	.	.	.	.	.	.	.	.	.	.	.	.	.	.
16EE-/LL	.	.	.	.	.	.	.	.	.	.	.	.	.	.	.	.
16E-/	.	.	.	.	.	.	.	.	.	.	.	.	.	.	.	.
16EE-/	.	.	.	.	.	.	.	.	.	.	.	.	.	.	.	.
16E-/JJ	.	.	.	.	.	.	.	.	.	.	.	.	.	.	.	.
*	*	*	*	*	*	*	*v	*v	*	*	*	*	*	*	*	*
=137	=137	=137	=137	=137	=137	=137	=137	=137	=137	=137	=137	=137	=137	=137	=137
!	!	!	!	!	!	!LO:HP:a	!	!	!LO:HP:a	!	!	!LO:HP:a	!	!	!LO:HP:a
16EE-/LL	2e-\ 2g 2ee-	.	.	2E-\	Et	<	2B-X\	Et	<	2g/	Et	<	2ee-\	Et	<
16E-/	.	.	.	.	.	.	.	.	.	.	.	.	.	.	.
16EE-/	.	.	.	.	.	.	.	.	.	.	.	.	.	.	.
16E-/JJ	.	.	.	.	.	.	.	.	.	.	.	.	.	.	.
16EE-/LL	.	.	.	.	.	.	.	.	.	.	.	.	.	.	.
16E-/	.	.	.	.	.	.	.	.	.	.	.	.	.	.	.
16EE-/	.	.	.	.	.	.	.	.	.	.	.	.	.	.	.
16E-/JJ	.	.	.	.	.	.	.	.	.	.	.	.	.	.	.
16DD/LL	4e-\ 4g 4ee-	.	.	4D\	be-	.	4B-\	be-	.	4g/	be-	.	4ee-\	be-	.
16D/	.	.	.	.	.	.	.	.	.	.	.	.	.	.	.
16DD/	.	.	.	.	.	.	.	.	.	.	.	.	.	.	[
16D/JJ	.	.	.	.	.	.	.	.	.	.	.	.	.	.	.
16CC/LL	4e-\ 4g 4ee-	.	.	4C\	-ne	[	4e-\	-ne	[	4g/	-ne	[	4ee-\	-ne	.
16C/	.	.	.	.	.	.	.	.	.	.	.	.	.	.	.
16CC/	.	.	.	.	.	.	.	.	.	.	.	.	.	.	.
16C/JJ	.	.	.	.	.	.	.	.	.	.	.	.	.	.	.
=138	=138	=138	=138	=138	=138	=138	=138	=138	=138	=138	=138	=138	=138	=138	=138
!	!	!	!	!	!	!LO:DY:a:rj	!	!	!LO:DY:a:rj	!	!	!LO:DY:a:rj	!	!	!LO:DY:a:rj
16BBB-/LL	4.g\ 4.dd 4.gg	.	f	2BBn/	dic-	f	4.d\	dic-	f	(4.g/	dic-	f	(4.gg\	dic-	f
16BB-/	.	.	.	.	.	.	.	.	.	.	.	.	.	.	.
16BBB-/	.	.	.	.	.	.	.	.	.	.	.	.	.	.	.
16BB-/JJ	.	.	.	.	.	.	.	.	.	.	.	.	.	.	.
16BBB-/LL	.	.	.	.	.	.	.	.	.	.	.	.	.	.	.
16BB-/	.	.	.	.	.	.	.	.	.	.	.	.	.	.	.
16BBB-/	8g\ 8dd 8ff	.	.	.	.	.	8d\	-ti-	.	8f/)	.	.	8ff\)	.	.
16BB-/JJ	.	.	.	.	.	.	.	.	.	.	.	.	.	.	.
16CC/LL	4g\ 4cc 4ee-	.	.	4C/	-ti-	.	2c\	-o	.	4e-/	-ti-	.	4ee-\	-ti-	.
16C/	.	.	.	.	.	.	.	.	.	.	.	.	.	.	.
16CC/	.	.	.	.	.	.	.	.	.	.	.	.	.	.	.
16C/JJ	.	.	sf	.	.	.	.	.	.	.	.	.	.	.	.
16AAA-/LL	4f\ 4cc 4ff	.	.	4AA-^>/	-o	.	.	.	.	4f^>/	-o	.	4ff^>\	-o	.
16AA-/	.	.	.	.	.	.	.	.	.	.	.	.	.	.	.
16AAA-/	.	.	.	.	.	.	.	.	.	.	.	.	.	.	.
16AA-/JJ	.	.	.	.	.	.	.	.	.	.	.	.	.	.	.
!!LO:PB:g=original
=139	=139	=139	=139	=139	=139	=139	=139	=139	=139	=139	=139	=139	=139	=139	=139
4BBB-/ 4BB-	4g/ 4b- 4ee-	.	sf	4BB-/	Re-	.	4B-\	Re-	.	4g/	Re-	.	4ee-\	Re-	.
4BBB-/ 4BB-	4g/ 4b- 4ee-	.	sf	4BB-/	-gno	.	4B-\	-gno	.	4g/	-gno	.	4ee-\	-gno	.
4BBB-/ 4BB-	4f/ 4a- 4dd	.	sf	4.BB-^>/	di	.	4.f^>\	di	.	4.a-^>/	di	.	4.dd^\	di	.
4BBB-/ 4BB-	4f/ 4a- 4dd	.	sf	.	.	.	.	.	.	.	.	.	.	.	.
.	.	.	.	8BB-/	Po-	.	8d\	Po-	.	8a-/	Po-	.	8ff\	Po-	.
=140	=140	=140	=140	=140	=140	=140	=140	=140	=140	=140	=140	=140	=140	=140	=140
*^	*^	*	*	*	*	*	*	*	*	*	*	*	*	*	*
!	!	!	!	!	!	!	!	!	!	!	!	!	!	!	!	!	!LO:HP:a:t=decres
4.EE-/ 4.E-	4.ryy	(4.e-/ 4.g 4.ee-	2ryy	.	>	4.E-\	-lo-	.	4.e-\	-lo-	.	4.g/	-lo-	.	4.ee-\	-lo-	>
!	!	!	!	!	!	!	!	!LO:HP:a:t=decres	!	!	!LO:HP:a:t=decres	!	!	!LO:HP:a:t=decres	!	!	!
8F/	8F\	8d/ 8dd	.	.	.	8F\	-ni-	>	8d\	-ni-	>	8a-/	-ni-	>	8dd\	-ni-	.
4A-/	2E-\	4c/ 4cc	2e-/	.	.	(4A-\	-a	.	2e-\	-a	.	(4a-/	-a	.	(4cc\	-a	.
4G/	.	4B-/) 4b-	.	.	]	4G\)	.	.	.	.	.	4e-/)	.	.	4b-\)	.	.
*	*	*v	*v	*	*	*	*	*	*	*	*	*	*	*	*	*	*
=141	=141	=141	=141	=141	=141	=141	=141	=141	=141	=141	=141	=141	=141	=141	=141	=141
4.E-/	2E-\	(4.e-/ 4.g 4.ee-	.	>	(4.E-\	Et	.	(4.e-\	Et	.	(4.g/	Et	.	(4.ee-\	Et	.
8F/	.	8d/ 8dd	.	.	8F\)	.	.	8d\)	.	.	8a-/)	.	.	8dd\)	.	.
!	!	!	!	!	!	!	!LO:HP:a:t=dim.	!	!	!LO:HP:a:t=dim.	!	!	!LO:HP:a:t=dim.	!	!	!LO:HP:a:t=dim.
4A-\	2ryy	4e-/ 4cc	.	.	4A-\	be-	>	4e-\	be-	>	4a-/	be-	>	4cc\	be-	>
4B-\	.	4d/) 4b-	.	]	4B-\	-ne-	.	4d\	-ne-	.	4f/	-ne-	.	4b-\	-ne-	.
*v	*v	*	*	*	*	*	*	*	*	*	*	*	*	*	*	*
=142	=142	=142	=142	=142	=142	=142	=142	=142	=142	=142	=142	=142	=142	=142	=142
4.BB-\ 4.B-	4.d^>/ 4.f 4.b-	.	f	4.B-^>\	-dic-	.	4.d^>\	-dic-	.	4.f^>/	-dic-	.	4.b-^\	-dic-	.
8AA-\ 8A-	8d/ 8f 8b-	.	.	8A-\	-ti-	.	8B-\	-ti-	.	8f/	-ti-	.	8b-\	-ti-	.
4GG\ 4G	4B-/ 4e- 4b-	.	.	(4G\	-o	.	2B-\	-o	.	(4e-/	-o	.	2b-\	-o	.
4FF\ 4F	4B-/ 4e- 4b-	.	.	4F\)	.	.	.	.	.	4d/)	.	.	.	.	.
=143	=143	=143	=143	=143	=143	=143	=143	=143	=143	=143	=143	=143	=143	=143	=143
!	!	!	!	!	!	!LO:DY:a:rj	!	!	!LO:DY:a:rj	!	!	!LO:DY:a:rj	!LO:TX:a:i:t=en élargissant.	!	!LO:DY:a:rj
2EE-/ 2E-	2B-/ 2e- 2g-X 2b-	.	sf	2E-\	Re-	f	2B-\	Re-	f	2g-X/	Re-	f	2b-\	Re-	f
4DD-X/ 4D-X	4f-X/ 4g- 4b-	.	.	2D-X\	-gno	.	2B-\	-gno	.	2f-X/	-gno	.	2b-\	-gno	.
4DD-/ 4D-	4f-X/ 4g- 4b-	.	.	.	.	.	.	.	.	.	.	.	.	.	.
!!LO:LB:g=original
=144	=144	=144	=144	=144	=144	=144	=144	=144	=144	=144	=144	=144	=144	=144	=144
2.CC-X/ 2.C-X	2.e-/ 2.g-X 2.cc-X	.	sf	2.C-X^>/	di	.	2.c-X^>\	di	.	2.e-^>/	di	.	2.cc-X^>\	di	.
4CC-/ 4C-	4e-/ 4g- 4b--	.	.	4C-/	Po-	.	4e-\	Po-	.	4f#X/	Po-	.	4an\	Po-	.
=145	=145	=145	=145	=145	=145	=145	=145	=145	=145	=145	=145	=145	=145	=145	=145
!	!LO:N:n=3:acc=n-	!	!	!	!	!	!	!	!	!	!	!	!	!	!
2BBB-X/ 2BB-X	2e-/ 2gn 2b-X	.	sf	2BB-^>/	-lo-	.	2e-^>\	-lo-	.	2gn^>/	-lo-	.	2b-^>\	-lo-	.
2BBB-/ 2BB-	2f/ 2a- 2b- 2dd	.	sf	2BB-^>/	-ni-	.	2B-^>\ 2d	-ni-	.	2fn^>/ 2a-	-ni-	.	2b-^>\ 2dd	-ni-	.
=146	=146	=146	=146	=146	=146	=146	=146	=146	=146	=146	=146	=146	=146	=146	=146
4.EE-;>/ 4.E-	4.e-;>\ 4.g 4.b- 4.ee-	.	ff	1EE-;> 1E-	-a	.	1B-;> 1e-	-a	.	1e-;> 1g	-a	.	1e-;> 1ee-	-a	.
8EE-/ 8E-	8e-\ 8g 8b- 8ee-	.	.	.	.	.	.	.	.	.	.	.	.	.	.
4EE-/ 4E-	8.e-\L 8.g 8.b- 8.ee-	.	.	.	.	.	.	.	.	.	.	.	.	.	.
.	16b-\K	.	.	.	.	.	.	.	.	.	.	.	.	.	.
4r	8.cc\	.	.	.	.	.	.	.	.	.	.	.	.	.	.
.	16dd\Jk	.	.	.	.	.	.	.	.	.	.	.	.	.	.
=147	=147	=147	=147	=147	=147	=147	=147	=147	=147	=147	=147	=147	=147	=147	=147
4EE-/ 4E-	[2ee-\	.	sf	1r	.	.	1r	.	.	1r	.	.	1r	.	.
8.E-\L 8.G 8.B- 8.e-	.	.	.	.	.	.	.	.	.	.	.	.	.	.	.
16E-\Jk 16G 16B- 16e-	.	.	<	.	.	.	.	.	.	.	.	.	.	.	.
4E-\ 4G 4B- 4e-	8.ee-\L]	.	.	.	.	.	.	.	.	.	.	.	.	.	.
.	16ee-\K	.	.	.	.	.	.	.	.	.	.	.	.	.	.
4E-\ 4G 4B- 4e-	8.ff\	.	.	.	.	.	.	.	.	.	.	.	.	.	.
.	16gg\Jk	.	[	.	.	.	.	.	.	.	.	.	.	.	.
=148	=148	=148	=148	=148	=148	=148	=148	=148	=148	=148	=148	=148	=148	=148	=148
4CC/ 4C	[2ee-\	.	sf	1r	.	.	1r	.	.	1r	.	.	1r	.	.
8.E-\L 8.G 8.B- 8.e-	.	.	<	.	.	.	.	.	.	.	.	.	.	.	.
16E-\Jk 16G 16B- 16e-	.	.	.	.	.	.	.	.	.	.	.	.	.	.	.
4E-\ 4G 4B- 4e-	8.ee-\L]	.	.	.	.	.	.	.	.	.	.	.	.	.	.
.	16ee-\K	.	.	.	.	.	.	.	.	.	.	.	.	.	.
4E-\ 4G 4B- 4e-	8.dd\	.	.	.	.	.	.	.	.	.	.	.	.	.	.
.	16cc\Jk	.	[	.	.	.	.	.	.	.	.	.	.	.	.
=149	=149	=149	=149	=149	=149	=149	=149	=149	=149	=149	=149	=149	=149	=149	=149
*	*^	*	*	*	*	*	*	*	*	*	*	*	*	*	*
4AAA-/ 4AA-	4f^>\ 4ff	2ryy	.	.	1r	.	.	1r	.	.	1r	.	.	1r	.	.
4AA-\ 4A-	4cc^>\	.	.	.	.	.	.	.	.	.	.	.	.	.	.	.
4BBB-/ 4BB-	4dd/	2f^<\	.	.	.	.	.	.	.	.	.	.	.	.	.	.
4BB-\ 4F 4A-	8.cc/L	.	.	.	.	.	.	.	.	.	.	.	.	.	.	.
.	16b-/Jk	.	.	.	.	.	.	.	.	.	.	.	.	.	.	.
*	*v	*v	*	*	*	*	*	*	*	*	*	*	*	*	*	*
=150	=150	=150	=150	=150	=150	=150	=150	=150	=150	=150	=150	=150	=150	=150	=150
4EE-/ 4E-	4g\ 4ee-	.	f	1r	.	.	1r	.	.	1r	.	.	1r	.	.
8.EE-/L 8.E-	8.G/L 8.B- 8.e-	.	.	.	.	.	.	.	.	.	.	.	.	.	.
16EE-/Jk 16E-	16G/Jk 16B- 16e-	.	.	.	.	.	.	.	.	.	.	.	.	.	.
2EE-/ 2E-	2G/ 2B- 2e-	.	.	.	.	.	.	.	.	.	.	.	.	.	.
==	==	==	==	==	==	==	==	==	==	==	==	==	==	==	==
*-	*-	*-	*-	*-	*-	*-	*-	*-	*-	*-	*-	*-	*-	*-	*-
!!!system-decoration: [(s1,s2,s3,s4)]{(s5,s6)}
!!!RDF**kern: < = below
!!!RDF**kern: > = above
!!!ENC: Berenika Jozajtis
!!!END: 2022-02-08
!!!AIN: 1 bass 1 piano 1 tenor 2 vox
!!!ENC: Marta Chmielewska
!!!END: 2022-02-15
